<?xml version="1.0" encoding="UTF-8"?>
<map version="1.10" tiledversion="1.11.2" orientation="orthogonal" renderorder="right-down" width="23" height="21" tilewidth="16" tileheight="16" infinite="0" nextlayerid="11" nextobjectid="21">
 <tileset firstgid="1" name="Dungeon_Tileset" tilewidth="16" tileheight="16" tilecount="100" columns="10">
  <image source="../../images/2D Pixel Dungeon Asset Pack v2.0/2D Pixel Dungeon Asset Pack/character and tileset/Dungeon_Tileset.png" width="160" height="160"/>
 </tileset>
 <tileset firstgid="101" name="Dungeon_Tileset" tilewidth="16" tileheight="16" tilecount="156" columns="12">
  <image source="../../images/Top_Down_Adventure_Pack_v.1.0/Dungeon_Tileset.png" width="192" height="208"/>
 </tileset>
 <layer id="1" name="ground" width="23" height="21">
  <data encoding="csv">
0,0,0,0,0,0,0,0,0,0,0,0,0,0,0,0,0,0,0,0,0,0,0,
0,0,0,0,0,0,0,0,0,0,0,0,0,0,0,0,0,0,0,0,0,0,0,
0,0,0,0,0,0,0,0,0,0,0,0,0,0,0,0,0,0,0,0,0,0,0,
0,0,0,0,0,0,0,0,0,0,0,0,0,0,0,0,0,0,0,0,0,0,0,
0,0,0,0,0,0,0,0,0,0,0,0,0,0,0,0,0,0,0,0,0,0,0,
0,0,0,0,0,0,0,0,240,215,216,216,216,217,240,0,0,0,0,0,0,0,0,
0,0,0,0,0,0,0,0,240,240,240,240,240,240,240,0,0,0,0,0,0,0,0,
0,0,0,0,0,0,0,0,240,240,240,240,240,240,240,0,0,0,0,0,0,0,0,
240,240,240,240,240,240,240,240,240,240,240,240,240,240,240,240,240,240,240,240,240,240,240,
240,240,240,240,240,240,240,240,240,240,240,240,240,240,240,240,240,239,240,240,240,240,240,
240,240,240,240,240,240,240,240,240,240,240,240,240,240,240,240,240,251,252,240,240,240,240,
240,240,240,240,240,240,240,240,240,240,240,240,240,240,240,240,240,240,240,240,240,240,240,
240,240,240,240,240,240,240,240,240,240,240,240,240,240,240,240,240,240,240,240,240,240,240,
240,240,240,240,240,240,240,240,240,240,240,240,239,240,240,240,240,240,240,240,240,240,240,
240,240,240,240,240,240,240,240,240,240,240,240,251,252,240,240,240,240,240,240,240,240,240,
240,240,240,240,240,240,240,240,240,240,240,240,240,240,240,240,240,240,240,240,240,240,240,
240,240,240,239,240,240,240,240,240,240,240,240,240,240,240,240,240,240,240,240,240,240,240,
240,240,240,251,252,240,240,240,240,240,240,240,240,240,240,240,240,240,240,240,240,240,240,
240,240,240,240,240,240,240,240,240,240,240,240,240,240,240,240,240,240,240,240,239,240,240,
240,240,240,240,240,240,240,240,240,240,240,240,240,240,240,240,240,240,240,240,251,252,240,
240,240,240,240,240,240,240,240,240,240,240,240,240,240,240,240,240,240,240,240,240,240,240
</data>
 </layer>
 <layer id="7" name="obj" width="23" height="21">
  <data encoding="csv">
0,0,0,0,0,0,0,0,0,0,0,0,0,0,0,0,0,0,0,0,0,0,0,
0,0,0,0,0,0,0,0,0,0,0,0,0,0,0,0,0,0,0,0,0,0,0,
0,0,0,0,0,0,0,0,0,0,0,0,0,0,0,0,0,0,0,0,0,0,0,
0,0,0,0,0,0,0,0,0,0,0,0,0,0,0,0,0,0,0,0,0,0,0,
0,0,0,0,0,0,0,0,0,0,0,0,0,0,0,0,0,0,0,0,0,0,0,
0,0,0,0,0,0,0,0,137,138,138,138,138,138,142,0,0,0,0,0,0,0,0,
0,0,0,0,0,0,0,0,149,174,131,132,133,175,154,0,0,0,0,0,0,0,0,
0,0,0,0,0,0,0,0,185,186,143,144,145,187,166,0,0,0,0,0,0,0,0,
101,102,102,105,102,102,102,103,175,0,0,0,0,0,174,102,102,104,102,102,102,102,106,
113,114,114,117,114,114,114,115,177,0,0,0,0,0,176,114,114,116,114,114,114,114,118,
125,126,126,129,126,126,126,127,189,0,0,0,0,0,188,126,126,128,126,126,126,126,130,
209,0,0,0,0,0,0,0,0,0,0,0,0,0,0,0,0,0,0,0,0,0,214,
209,0,0,0,0,0,0,0,0,0,0,0,0,0,0,0,0,0,0,0,0,0,214,
209,0,0,0,0,0,0,0,0,0,0,0,0,0,0,0,0,0,0,0,0,0,178,
209,0,0,0,0,0,0,0,0,0,0,0,0,0,0,0,0,0,0,0,0,0,190,
209,0,0,0,0,0,0,0,0,0,0,0,0,0,0,0,0,0,195,0,0,0,214,
209,0,0,0,0,0,0,0,0,0,0,0,0,0,0,0,0,0,0,0,0,0,214,
209,0,0,0,0,0,0,0,0,0,0,0,0,0,0,0,0,0,0,0,0,0,214,
209,0,0,0,0,0,0,0,0,0,0,0,0,0,0,0,0,0,0,0,0,0,214,
209,0,0,0,0,0,0,0,0,0,0,0,0,0,0,0,0,0,0,0,0,0,214,
221,222,222,222,222,225,222,222,222,222,222,222,222,223,223,223,223,223,223,225,223,223,226
</data>
 </layer>
 <objectgroup id="9" name="door">
  <object id="13" name="door" gid="131" x="160" y="112" width="16" height="16">
   <properties>
    <property name="next_scene" value="fase_4"/>
   </properties>
  </object>
 </objectgroup>
 <objectgroup id="6" name="player">
  <object id="1" name="player" x="218.5" y="273.5">
   <point/>
  </object>
 </objectgroup>
 <objectgroup id="5" name="attention_point" locked="1">
  <object id="5" name="1" x="171" y="281">
   <properties>
    <property name="positions" value="[]"/>
   </properties>
   <point/>
  </object>
 </objectgroup>
 <objectgroup id="4" name="attention_points"/>
 <objectgroup id="3" name="areas_dialog">
  <object id="16" name="dialog_1" x="160" y="208.436" width="62.3194" height="81.5644">
   <properties>
    <property name="active_status" type="bool" value="true"/>
    <property name="dialogo" value="Arquimedes: Agora vamos estudar associação de resistores para você dominar a fase 4.;Arquimedes: Em série, a corrente é a mesma em todos os resistores e a resistência equivalente é a soma.;Arquimedes: Exemplo em série: R1 mais R2 mais R3 gera a resistência total do bloco.;Arquimedes: Em paralelo, a tensão é a mesma em cada ramo e usamos a soma dos inversos.;Arquimedes: No paralelo, a resistência equivalente sempre fica menor que o menor resistor.;Arquimedes: Em circuitos mistos, reduza por blocos: primeiro paralelo, depois série, ou o contrário.;Arquimedes: O divisor de tensão em série ajuda a achar tensões nos pontos do circuito.;Arquimedes: Não esqueça: GND significa Ground e define a referência de zero volt.;Arquimedes: Sem GND, o circuito pode não funcionar e as medições podem ficar incorretas.;Arquimedes: Siga esses passos nos painéis, pegue a chave e avance para a fase 4."/>
    <property name="dialogo_en" value="Archimedes: Now we are going to study resistor associations so you can master stage 4.;Archimedes: In series, the current is the same through all resistors and the equivalent resistance is the sum.;Archimedes: Series example: R1 plus R2 plus R3 gives the total resistance of the block.;Archimedes: In parallel, the voltage is the same in each branch and we use the sum of the reciprocals.;Archimedes: In parallel, the equivalent resistance is always smaller than the smallest resistor.;Archimedes: In mixed circuits, reduce the circuit in blocks: first parallel, then series, or the other way around.;Archimedes: The series voltage divider helps you find voltages at points in the circuit.;Archimedes: Do not forget: GND means Ground and defines the zero-volt reference.;Archimedes: Without GND, the circuit may not work and the measurements may be incorrect.;Archimedes: Follow these steps on the panels, take the key, and move on to stage 4."/>
   </properties>
  </object>
 </objectgroup>
 <objectgroup id="2" name="itens">
  <object id="15" name="key" x="40" y="217">
   <properties>
    <property name="active_status" type="bool" value="false"/>
   </properties>
   <point/>
  </object>
  <object id="19" name="old_paper" x="169" y="190">
   <properties>
    <property name="active_status" type="bool" value="false"/>
   </properties>
   <point/>
  </object>
 </objectgroup>
 <layer id="8" name="ground2" width="23" height="21">
  <data encoding="csv">
0,0,0,0,0,0,0,0,0,0,0,0,0,0,0,0,0,0,0,0,0,0,0,
0,0,0,0,0,0,0,0,0,0,0,0,0,0,0,0,0,0,0,0,0,0,0,
0,0,0,0,0,0,0,0,0,0,0,0,0,0,0,0,0,0,0,0,0,0,0,
0,0,0,0,0,0,0,0,0,0,0,0,0,0,0,0,0,0,0,0,0,0,0,
0,0,0,0,0,0,0,0,0,0,0,0,0,0,0,0,0,0,0,0,0,0,0,
0,0,0,0,0,0,0,0,0,0,0,0,0,0,0,0,0,0,0,0,0,0,0,
0,0,0,0,0,0,0,0,0,0,0,0,0,0,0,0,0,0,0,0,0,0,0,
0,0,0,0,0,0,0,0,0,0,0,0,0,0,0,0,0,0,0,0,0,0,0,
0,0,0,0,0,0,0,0,0,0,0,0,0,0,0,0,0,0,0,0,0,0,0,
0,0,0,0,0,0,0,0,0,0,0,0,0,0,0,0,0,0,0,0,0,0,0,
0,0,0,0,0,0,0,0,0,0,0,0,0,0,0,0,0,0,0,0,0,0,0,
0,0,0,0,0,0,0,0,0,0,0,0,0,0,0,0,0,0,0,0,0,0,0,
0,0,0,0,0,0,0,0,0,0,0,0,0,0,0,0,0,0,0,0,0,0,0,
0,0,0,0,0,0,0,0,0,0,0,0,0,0,0,0,0,0,0,0,0,0,0,
0,0,0,0,0,0,0,0,0,0,0,0,0,0,0,0,0,0,0,0,0,0,0,
0,0,0,0,0,0,0,0,0,0,0,0,0,0,0,0,0,0,0,0,0,0,0,
0,0,0,0,0,0,0,0,0,0,0,0,0,0,0,0,0,0,0,0,0,0,0,
0,0,0,0,0,0,0,0,0,0,0,0,0,0,0,0,0,0,0,0,0,0,0,
0,0,0,0,0,0,0,0,0,0,0,0,0,0,0,0,0,0,0,0,0,0,0,
0,0,0,0,0,0,0,0,0,0,0,0,0,0,0,0,0,0,0,0,0,0,0,
0,0,0,0,0,0,0,0,0,0,0,0,0,0,0,0,0,0,0,0,0,0,0
</data>
 </layer>
 <objectgroup id="10" name="npc">
  <object id="20" name="arquimedes" type="arquimedes" x="152" y="228">
   <point/>
  </object>
 </objectgroup>
</map>
