<?xml version="1.0" encoding="UTF-8"?>
<map version="1.10" tiledversion="1.11.2" orientation="orthogonal" renderorder="right-down" width="23" height="21" tilewidth="16" tileheight="16" infinite="0" nextlayerid="11" nextobjectid="21">
 <tileset firstgid="1" name="Dungeon_Tileset" tilewidth="16" tileheight="16" tilecount="100" columns="10">
  <image source="../../images/2D Pixel Dungeon Asset Pack v2.0/2D Pixel Dungeon Asset Pack/character and tileset/Dungeon_Tileset.png" width="160" height="160"/>
 </tileset>
 <tileset firstgid="101" name="Dungeon_Tileset" tilewidth="16" tileheight="16" tilecount="156" columns="12">
  <image source="../../images/Top_Down_Adventure_Pack_v.1.0/Dungeon_Tileset.png" width="192" height="208"/>
 </tileset>
 <layer id="1" name="ground" width="23" height="21">
  <data encoding="csv">
0,0,0,0,0,0,0,0,0,0,0,0,0,0,0,0,0,0,0,0,0,0,0,
0,0,0,0,0,0,0,0,0,0,0,0,0,0,0,0,0,0,0,0,0,0,0,
0,0,0,0,0,0,0,0,0,0,0,0,0,0,0,0,0,0,0,0,0,0,0,
0,0,0,0,0,0,0,0,0,0,0,0,0,0,0,0,0,0,0,0,0,0,0,
0,0,0,0,0,0,0,0,0,0,0,0,0,0,0,0,0,0,0,0,0,0,0,
0,0,0,0,0,0,0,0,240,215,216,216,216,217,240,0,0,0,0,0,0,0,0,
0,0,0,0,0,0,0,0,240,240,240,240,240,240,240,0,0,0,0,0,0,0,0,
0,0,0,0,0,0,0,0,240,240,240,240,240,240,240,0,0,0,0,0,0,0,0,
240,240,240,240,240,240,240,240,240,240,240,240,240,240,240,240,240,240,240,240,240,240,240,
240,240,240,240,240,240,240,240,240,240,240,240,240,240,240,240,240,239,240,240,240,240,240,
240,240,240,240,240,240,240,240,240,240,240,240,240,240,240,240,240,251,252,240,240,240,240,
240,240,240,240,240,240,240,240,240,240,240,240,240,240,240,240,240,240,240,240,240,240,240,
240,240,240,240,240,240,240,240,240,240,240,240,240,240,240,240,240,240,240,240,240,240,240,
240,240,240,240,240,240,240,240,240,240,240,240,239,240,240,240,240,240,240,240,240,240,240,
240,240,240,240,240,240,240,240,240,240,240,240,251,252,240,240,240,240,240,240,240,240,240,
240,240,240,240,240,240,240,240,240,240,240,240,240,240,240,240,240,240,240,240,240,240,240,
240,240,240,239,240,240,240,240,240,240,240,240,240,240,240,240,240,240,240,240,240,240,240,
240,240,240,251,252,240,240,240,240,240,240,240,240,240,240,240,240,240,240,240,240,240,240,
240,240,240,240,240,240,240,240,240,240,240,240,240,240,240,240,240,240,240,240,239,240,240,
240,240,240,240,240,240,240,240,240,240,240,240,240,240,240,240,240,240,240,240,251,252,240,
240,240,240,240,240,240,240,240,240,240,240,240,240,240,240,240,240,240,240,240,240,240,240
</data>
 </layer>
 <layer id="7" name="obj" width="23" height="21">
  <data encoding="csv">
0,0,0,0,0,0,0,0,0,0,0,0,0,0,0,0,0,0,0,0,0,0,0,
0,0,0,0,0,0,0,0,0,0,0,0,0,0,0,0,0,0,0,0,0,0,0,
0,0,0,0,0,0,0,0,0,0,0,0,0,0,0,0,0,0,0,0,0,0,0,
0,0,0,0,0,0,0,0,0,0,0,0,0,0,0,0,0,0,0,0,0,0,0,
0,0,0,0,0,0,0,0,0,0,0,0,0,0,0,0,0,0,0,0,0,0,0,
0,0,0,0,0,0,0,0,137,138,138,138,138,138,142,0,0,0,0,0,0,0,0,
0,0,0,0,0,0,0,0,149,174,131,132,133,175,154,0,0,0,0,0,0,0,0,
0,0,0,0,0,0,0,0,185,186,143,144,145,187,166,0,0,0,0,0,0,0,0,
101,102,102,105,102,102,102,103,175,0,0,0,0,0,174,102,102,104,102,102,102,102,106,
113,114,114,117,114,114,114,115,177,0,0,0,0,0,176,114,114,116,114,114,114,114,118,
125,126,126,129,126,126,126,127,189,0,0,0,0,0,188,126,126,128,126,126,126,126,130,
209,0,0,0,0,0,0,0,0,0,0,0,0,0,0,0,0,0,0,0,0,0,214,
209,0,0,0,0,0,0,0,0,0,0,0,0,0,0,0,0,0,0,0,0,0,214,
209,0,0,0,0,0,0,0,0,0,0,0,0,0,0,0,0,0,0,0,0,0,178,
209,0,0,0,0,0,0,0,0,0,0,0,0,0,0,0,0,0,0,0,0,0,190,
209,0,0,0,0,0,0,0,0,0,0,0,0,0,0,0,0,0,195,0,0,0,214,
209,0,0,0,0,0,0,0,0,0,0,0,0,0,0,0,0,0,0,0,0,0,214,
209,0,0,0,0,0,0,0,0,0,0,0,0,0,0,0,0,0,0,0,0,0,214,
209,0,0,0,0,0,0,0,0,0,0,0,0,0,0,0,0,0,0,0,0,0,214,
209,0,0,0,0,0,0,0,0,0,0,0,0,0,0,0,0,0,0,0,0,0,214,
221,222,222,222,222,225,222,222,222,222,222,222,222,223,223,223,223,223,223,225,223,223,226
</data>
 </layer>
 <objectgroup id="9" name="door">
  <object id="13" name="door" gid="131" x="160" y="112" width="16" height="16">
   <properties>
    <property name="next_scene" value="home_scene"/>
   </properties>
  </object>
 </objectgroup>
 <objectgroup id="6" name="player">
  <object id="1" name="player" x="218.5" y="273.5">
   <point/>
  </object>
 </objectgroup>
 <objectgroup id="5" name="attention_point" locked="1">
  <object id="5" name="1" x="171" y="281">
   <properties>
    <property name="positions" value="[]"/>
   </properties>
   <point/>
  </object>
 </objectgroup>
 <objectgroup id="4" name="attention_points"/>
 <objectgroup id="3" name="areas_dialog">
  <object id="16" name="dialog_1" x="159.39" y="206.606" width="64.7586" height="83.3938">
   <properties>
    <property name="active_status" type="bool" value="true"/>
    <property name="dialogo" value="Arquimedes: Nesta etapa vamos estudar máxima transferência de potência em resistores.;Arquimedes: O circuito visto pela carga pode ser trocado pelo equivalente de Thévenin Vth em série com Rth.;Arquimedes: A potência na carga RL é máxima quando RL for igual a Rth.;Arquimedes: Essa condição vem da derivada da potência em RL em função de RL igual a zero.;Arquimedes: Primeiro encontre Vth e Rth nos terminais onde a carga será conectada.;Arquimedes: Depois ajuste RL para o valor de Rth e calcule corrente, tensão e potência entregue.;Arquimedes: Nessa condição, a eficiência para uma fonte ideal de Thévenin fica em torno de cinquenta por cento.;Arquimedes: Use GND como referência para evitar medidas ambíguas de tensão.;Arquimedes: Nos painéis, valide RL alvo e compare a potência obtida com o valor esperado.;Arquimedes: Se houver mais de uma opção de RL, escolha a mais próxima de Rth para maximizar a transferência."/>
    <property name="dialogo_en" value="Arquimedes: In this stage we are going to study maximum power transfer in resistors.;Arquimedes: The circuit seen by the load can be replaced by the Thévenin equivalent, Vth in series with Rth.;Arquimedes: The power on load RL is maximum when RL is equal to Rth.;Arquimedes: This condition comes from taking the derivative of the power in RL with respect to RL and setting it to zero.;Arquimedes: First find Vth and Rth at the terminals where the load will be connected.;Arquimedes: Then set RL to the value of Rth and calculate the delivered current, voltage, and power.;Arquimedes: Under this condition, the efficiency for an ideal Thévenin source is around fifty percent.;Arquimedes: Use GND as the reference to avoid ambiguous voltage measurements.;Arquimedes: On the panels, validate the target RL and compare the obtained power with the expected value.;Arquimedes: If there is more than one RL option, choose the one closest to Rth to maximize the transfer."/>
   </properties>
  </object>
 </objectgroup>
 <objectgroup id="2" name="itens">
  <object id="15" name="key" x="40" y="217">
   <properties>
    <property name="active_status" type="bool" value="false"/>
   </properties>
   <point/>
  </object>
  <object id="19" name="old_paper" x="169" y="190">
   <properties>
    <property name="active_status" type="bool" value="false"/>
   </properties>
   <point/>
  </object>
 </objectgroup>
 <layer id="8" name="ground2" width="23" height="21">
  <data encoding="csv">
0,0,0,0,0,0,0,0,0,0,0,0,0,0,0,0,0,0,0,0,0,0,0,
0,0,0,0,0,0,0,0,0,0,0,0,0,0,0,0,0,0,0,0,0,0,0,
0,0,0,0,0,0,0,0,0,0,0,0,0,0,0,0,0,0,0,0,0,0,0,
0,0,0,0,0,0,0,0,0,0,0,0,0,0,0,0,0,0,0,0,0,0,0,
0,0,0,0,0,0,0,0,0,0,0,0,0,0,0,0,0,0,0,0,0,0,0,
0,0,0,0,0,0,0,0,0,0,0,0,0,0,0,0,0,0,0,0,0,0,0,
0,0,0,0,0,0,0,0,0,0,0,0,0,0,0,0,0,0,0,0,0,0,0,
0,0,0,0,0,0,0,0,0,0,0,0,0,0,0,0,0,0,0,0,0,0,0,
0,0,0,0,0,0,0,0,0,0,0,0,0,0,0,0,0,0,0,0,0,0,0,
0,0,0,0,0,0,0,0,0,0,0,0,0,0,0,0,0,0,0,0,0,0,0,
0,0,0,0,0,0,0,0,0,0,0,0,0,0,0,0,0,0,0,0,0,0,0,
0,0,0,0,0,0,0,0,0,0,0,0,0,0,0,0,0,0,0,0,0,0,0,
0,0,0,0,0,0,0,0,0,0,0,0,0,0,0,0,0,0,0,0,0,0,0,
0,0,0,0,0,0,0,0,0,0,0,0,0,0,0,0,0,0,0,0,0,0,0,
0,0,0,0,0,0,0,0,0,0,0,0,0,0,0,0,0,0,0,0,0,0,0,
0,0,0,0,0,0,0,0,0,0,0,0,0,0,0,0,0,0,0,0,0,0,0,
0,0,0,0,0,0,0,0,0,0,0,0,0,0,0,0,0,0,0,0,0,0,0,
0,0,0,0,0,0,0,0,0,0,0,0,0,0,0,0,0,0,0,0,0,0,0,
0,0,0,0,0,0,0,0,0,0,0,0,0,0,0,0,0,0,0,0,0,0,0,
0,0,0,0,0,0,0,0,0,0,0,0,0,0,0,0,0,0,0,0,0,0,0,
0,0,0,0,0,0,0,0,0,0,0,0,0,0,0,0,0,0,0,0,0,0,0
</data>
 </layer>
 <objectgroup id="10" name="npc">
  <object id="20" name="arquimedes" type="arquimedes" x="152" y="228">
   <point/>
  </object>
 </objectgroup>
</map>
