<?xml version="1.0" encoding="UTF-8"?>
<map version="1.10" tiledversion="1.11.2" orientation="orthogonal" renderorder="right-down" width="52" height="72" tilewidth="16" tileheight="16" infinite="0" nextlayerid="18" nextobjectid="1080">
 <tileset firstgid="1" name="Dungeon_Tileset" tilewidth="16" tileheight="16" tilecount="156" columns="12">
  <image source="../../../images/Top_Down_Adventure_Pack_v.1.0/Dungeon_Tileset.png" width="192" height="208"/>
 </tileset>
 <layer id="13" name="ground" width="52" height="72">
  <data encoding="csv">
0,0,0,0,0,0,0,0,0,0,0,0,0,0,0,0,0,0,0,0,0,0,0,0,0,0,0,0,0,0,0,0,0,0,0,0,0,0,0,0,0,0,0,0,0,0,0,0,0,0,0,0,
0,0,0,0,0,0,0,0,0,0,0,0,0,0,0,0,0,0,0,0,0,0,0,0,0,0,0,0,0,0,0,0,0,0,0,0,0,0,0,0,0,0,0,0,0,0,0,0,0,0,0,0,
0,0,0,0,0,0,0,0,0,0,0,0,0,0,0,0,0,0,0,0,0,0,0,0,0,0,0,0,0,0,0,0,0,0,0,0,0,0,0,0,0,0,0,0,0,0,0,0,0,0,0,0,
0,140,140,140,140,140,140,140,140,140,140,140,140,140,140,140,140,140,140,140,140,140,140,140,140,140,140,140,140,140,140,140,140,140,140,140,140,140,140,140,140,140,140,140,140,140,140,140,140,140,140,0,
0,140,140,140,140,140,140,140,140,140,140,140,140,140,140,140,140,140,140,140,140,140,140,140,140,140,140,140,140,140,140,140,140,140,140,140,140,140,140,140,140,140,140,140,140,140,140,140,140,140,140,0,
0,140,140,140,140,140,140,140,140,140,140,140,140,140,140,140,140,140,140,140,140,140,140,140,140,140,140,140,140,140,140,140,140,140,140,140,140,140,140,140,140,140,140,140,140,140,140,140,140,140,140,0,
0,140,140,140,140,140,140,140,140,140,140,140,140,140,140,140,140,140,140,140,140,140,140,140,140,140,140,140,140,140,140,140,140,140,140,140,140,140,140,140,140,140,140,140,140,140,140,140,140,140,140,0,
0,140,140,140,140,140,140,140,140,140,140,140,140,140,140,140,140,140,140,140,140,140,140,140,140,140,140,140,140,140,140,140,140,140,140,140,140,140,140,140,140,140,140,140,140,140,140,140,140,140,140,0,
0,140,140,140,140,140,140,140,140,140,140,140,140,140,140,140,140,140,140,140,140,140,140,140,140,140,140,140,140,140,140,140,140,140,140,140,140,140,140,140,140,140,140,140,140,140,140,140,140,140,140,0,
0,140,140,140,140,140,140,140,140,140,140,140,140,140,140,140,140,140,140,140,140,140,140,140,140,140,140,140,140,140,140,140,140,140,140,140,140,140,140,140,140,140,140,140,140,140,140,140,140,140,140,0,
0,140,140,140,140,140,140,140,140,140,140,140,140,140,140,140,140,140,140,140,140,140,140,140,140,140,140,140,140,140,140,140,140,140,140,140,140,140,140,140,140,140,140,140,140,140,140,140,140,140,140,0,
0,140,140,140,140,140,140,140,140,140,140,140,140,140,140,140,140,140,140,140,140,140,140,140,140,140,140,140,140,140,140,140,140,140,140,140,140,140,140,140,140,140,140,140,140,140,140,140,140,140,140,0,
0,140,140,140,140,140,140,140,140,140,140,140,140,140,140,140,140,140,140,140,140,140,140,140,140,140,140,140,140,140,140,140,140,140,140,140,140,140,140,140,140,140,140,140,140,140,140,140,140,140,140,0,
0,140,140,140,140,140,140,140,140,140,140,140,140,140,140,140,140,140,140,140,140,140,140,140,140,140,140,140,140,140,140,140,140,140,140,140,140,140,140,140,140,140,140,140,140,140,140,140,140,140,140,0,
0,140,140,140,140,140,140,140,140,140,140,140,140,140,140,140,140,140,140,140,140,140,140,140,140,140,140,140,140,140,140,140,140,140,140,140,140,140,140,140,140,140,140,140,140,140,140,140,140,140,140,0,
0,140,140,140,140,140,140,140,140,140,140,140,140,140,140,140,140,140,140,140,140,140,140,140,140,140,140,140,140,140,140,140,140,140,140,140,140,140,140,140,140,140,140,140,140,140,140,140,140,140,140,0,
0,140,140,140,140,140,140,140,140,140,140,140,140,140,140,140,140,140,140,140,140,140,140,140,140,140,140,140,140,140,140,140,140,140,140,140,140,140,140,140,140,140,140,140,140,140,140,140,140,140,140,0,
0,140,140,140,140,140,140,140,140,140,140,140,140,140,140,140,140,140,140,140,140,140,140,140,140,140,140,140,140,140,140,140,140,140,140,140,140,140,140,140,140,140,140,140,140,140,140,140,140,140,140,0,
0,140,140,140,140,140,140,140,140,140,140,140,140,140,140,140,140,140,140,140,140,140,140,140,140,140,140,140,140,140,140,140,140,140,140,140,140,140,140,140,140,140,140,140,140,140,140,140,140,140,140,0,
0,140,140,140,140,140,140,140,140,140,140,140,140,140,140,140,140,140,140,140,140,140,140,140,140,140,140,140,140,140,140,140,140,140,140,140,140,140,140,140,140,140,140,140,140,140,140,140,140,140,140,0,
0,140,140,140,140,140,140,140,140,140,140,140,140,140,140,140,140,140,140,140,140,140,140,140,140,140,140,140,140,140,140,140,140,140,140,140,140,140,140,140,140,140,140,140,140,140,140,140,140,140,140,0,
0,140,140,140,140,140,140,140,140,140,140,140,140,140,140,140,140,140,140,140,140,140,140,140,140,140,140,140,140,140,140,140,140,140,140,140,140,140,140,140,140,140,140,140,140,140,140,140,140,140,140,0,
0,140,140,140,140,140,140,140,140,140,140,140,140,140,140,140,140,140,140,140,140,140,140,140,140,140,140,140,140,140,140,140,140,140,140,140,140,140,140,140,140,140,140,140,140,140,140,140,140,140,140,0,
0,140,140,140,140,140,140,140,140,140,140,140,140,140,140,140,140,140,140,140,140,140,140,140,140,140,140,140,140,140,140,140,140,140,140,140,140,140,140,140,140,140,140,140,140,140,140,140,140,140,140,0,
0,140,140,140,140,140,140,140,140,140,140,140,140,140,140,140,140,140,140,140,140,140,140,140,140,140,140,140,140,140,140,140,140,140,140,140,140,140,140,140,140,140,140,140,140,140,140,140,140,140,140,0,
0,140,140,140,140,140,140,140,140,140,140,140,140,140,140,140,140,140,140,140,140,140,140,140,140,140,140,140,140,140,140,140,140,140,140,140,140,140,140,140,140,140,140,140,140,140,140,140,140,140,140,0,
0,140,140,140,140,140,140,140,140,140,140,140,140,140,140,140,140,140,140,140,140,140,140,140,140,140,140,140,140,140,140,140,140,140,140,140,140,140,140,140,140,140,140,140,140,140,140,140,140,140,140,0,
0,140,140,140,140,140,140,140,140,140,140,140,140,140,140,140,140,140,140,140,140,140,140,140,140,140,140,140,140,140,140,140,140,140,140,140,140,140,140,140,140,140,140,140,140,140,140,140,140,140,140,0,
0,140,140,140,140,140,140,140,140,140,140,140,140,140,140,140,140,140,140,140,140,140,140,140,140,140,140,140,140,140,140,140,140,140,140,140,140,140,140,140,140,140,140,140,140,140,140,140,140,140,140,0,
0,140,140,140,140,140,140,140,140,140,140,140,140,140,140,140,140,140,140,140,140,140,140,140,140,140,140,140,140,140,140,140,140,140,140,140,140,140,140,140,140,140,140,140,140,140,140,140,140,140,140,0,
0,140,140,140,140,140,140,140,140,140,140,140,140,140,140,140,140,140,140,140,140,140,140,140,140,140,140,140,140,140,140,140,140,140,140,140,140,140,140,140,140,140,140,140,140,140,140,140,140,140,140,0,
0,140,140,140,140,140,140,140,140,140,140,140,140,140,140,140,140,140,140,140,140,140,140,140,140,140,140,140,140,140,140,140,140,140,140,140,140,140,140,140,140,140,140,140,140,140,140,140,140,140,140,0,
0,140,140,140,140,140,140,140,140,140,140,140,140,140,140,140,140,140,140,140,140,140,140,140,140,140,140,140,140,140,140,140,140,140,140,140,140,140,140,140,140,140,140,140,140,140,140,140,140,140,140,0,
0,140,140,140,140,140,140,140,140,140,140,140,140,140,140,140,140,140,140,140,140,140,140,140,140,140,140,140,140,140,140,140,140,140,140,140,140,140,140,140,140,140,140,140,140,140,140,140,140,140,140,0,
0,140,140,140,140,140,140,140,140,140,140,140,140,140,140,140,140,140,140,140,140,140,140,140,140,140,140,140,140,140,140,140,140,140,140,140,140,140,140,140,140,140,140,140,140,140,140,140,140,140,140,0,
0,140,140,140,140,140,140,140,140,140,140,140,140,140,140,140,140,140,140,140,140,140,140,140,140,140,140,140,140,140,140,140,140,140,140,140,140,140,140,140,140,140,140,140,140,140,140,140,140,140,140,0,
0,140,140,140,140,140,140,140,140,140,140,140,140,140,140,140,140,140,140,140,140,140,140,140,140,140,140,140,140,140,140,140,140,140,140,140,140,140,140,140,140,140,140,140,140,140,140,140,140,140,140,0,
0,140,140,140,140,140,140,140,140,140,140,140,140,140,140,140,140,140,140,140,140,140,140,140,140,140,140,140,140,140,140,140,140,140,140,140,140,140,140,140,140,140,140,140,140,140,140,140,140,140,140,0,
0,140,140,140,140,140,140,140,140,140,140,140,140,140,140,140,140,140,140,140,140,140,140,140,140,140,140,140,140,140,140,140,140,140,140,140,140,140,140,140,140,140,140,140,140,140,140,140,140,140,140,0,
0,140,140,140,140,140,140,140,140,140,140,140,140,140,140,140,140,140,140,140,140,140,140,140,140,140,140,140,140,140,140,140,140,140,140,140,140,140,140,140,140,140,140,140,140,140,140,140,140,140,140,0,
0,140,140,140,140,140,140,140,140,140,140,140,140,140,140,140,140,140,140,140,140,140,140,140,140,140,140,140,140,140,140,140,140,140,140,140,140,140,140,140,140,140,140,140,140,140,140,140,140,140,140,0,
0,140,140,140,140,140,140,140,140,140,140,140,140,140,140,140,140,140,140,140,140,140,140,140,140,140,140,140,140,140,140,140,140,140,140,140,140,140,140,140,140,140,140,140,140,140,140,140,140,140,140,0,
0,140,140,140,140,140,140,140,140,140,140,140,140,140,140,140,140,140,140,140,140,140,140,140,140,140,140,140,140,140,140,140,140,140,140,140,140,140,140,140,140,140,140,140,140,140,140,140,140,140,140,0,
0,140,140,140,140,140,140,140,140,140,140,140,140,140,140,140,140,140,140,140,140,140,140,140,140,140,140,140,140,140,140,140,140,140,140,140,140,140,140,140,140,140,140,140,140,140,140,140,140,140,140,0,
0,140,140,140,140,140,140,140,140,140,140,140,140,140,140,140,140,140,140,140,140,140,140,140,140,140,140,140,140,140,140,140,140,140,140,140,140,140,140,140,140,140,140,140,140,140,140,140,140,140,140,0,
0,140,140,140,140,140,140,140,140,140,140,140,140,140,140,140,140,140,140,140,140,140,140,140,140,140,140,140,140,140,140,140,140,140,140,140,140,140,140,140,140,140,140,140,140,140,140,140,140,140,140,0,
0,140,140,140,140,140,140,140,140,140,140,140,140,140,140,140,140,140,140,140,140,140,140,140,140,140,140,140,140,140,140,140,140,140,140,140,140,140,140,140,140,140,140,140,140,140,140,140,140,140,140,0,
0,140,140,140,140,140,140,140,140,140,140,140,140,140,140,140,140,140,140,140,140,140,140,140,140,140,140,140,140,140,140,140,140,140,140,140,140,140,140,140,140,140,140,140,140,140,140,140,140,140,140,0,
0,140,140,140,140,140,140,140,140,140,140,140,140,140,140,140,140,140,140,140,140,140,140,140,140,140,140,140,140,140,140,140,140,140,140,140,140,140,140,140,140,140,140,140,140,140,140,140,140,140,140,0,
0,140,140,140,140,140,140,140,140,140,140,140,140,140,140,140,140,140,140,140,140,140,140,140,140,140,140,140,140,140,140,140,140,140,140,140,140,140,140,140,140,140,140,140,140,140,140,140,140,140,140,0,
0,140,140,140,140,140,140,140,140,140,140,140,140,140,140,140,140,140,140,140,140,140,140,140,140,140,140,140,140,140,140,140,140,140,140,140,140,140,140,140,140,140,140,140,140,140,140,140,140,140,140,0,
0,140,140,140,140,140,140,140,140,140,140,140,140,140,140,140,140,140,140,140,140,140,140,140,140,140,140,140,140,140,140,140,140,140,140,140,140,140,140,140,140,140,140,140,140,140,140,140,140,140,140,0,
0,140,140,140,140,140,140,140,140,140,140,140,140,140,140,140,140,140,140,140,140,140,140,140,140,140,140,140,140,140,140,140,140,140,140,140,140,140,140,140,140,140,140,140,140,140,140,140,140,140,140,0,
0,140,140,140,140,140,140,140,140,140,140,140,140,140,140,140,140,140,140,140,140,140,140,140,140,140,140,140,140,140,140,140,140,140,140,140,140,140,140,140,140,140,140,140,140,140,140,140,140,140,140,0,
0,140,140,140,140,140,140,140,140,140,140,140,140,140,140,140,140,140,140,140,140,140,140,140,140,140,140,140,140,140,140,140,140,140,140,140,140,140,140,140,140,140,140,140,140,140,140,140,140,140,140,0,
0,140,140,140,140,140,140,140,140,140,140,140,140,140,140,140,140,140,140,140,140,140,140,140,140,140,140,140,140,140,140,140,140,140,140,140,140,140,140,140,140,140,140,140,140,140,140,140,140,140,140,0,
0,140,140,140,140,140,140,140,140,140,140,140,140,140,140,140,140,140,140,140,140,140,140,140,140,140,140,140,140,140,140,140,140,140,140,140,140,140,140,140,140,140,140,140,140,140,140,140,140,140,140,0,
0,140,140,140,140,140,140,140,140,140,140,140,140,140,140,140,140,140,140,140,140,140,140,140,140,140,140,140,140,140,140,140,140,140,140,140,140,140,140,140,140,140,140,140,140,140,140,140,140,140,140,0,
0,140,140,140,140,140,140,140,140,140,140,140,140,140,140,140,140,140,140,140,140,140,140,140,140,140,140,140,140,140,140,140,140,140,140,140,140,140,140,140,140,140,140,140,140,140,140,140,140,140,140,0,
0,140,140,140,140,140,140,140,140,140,140,140,140,140,140,140,140,140,140,140,140,140,140,140,140,140,140,140,140,140,140,140,140,140,140,140,140,140,140,140,140,140,140,140,140,140,140,140,140,140,140,0,
0,140,140,140,140,140,140,140,140,140,140,140,140,140,140,140,140,140,140,140,140,140,140,140,140,140,140,140,140,140,140,140,140,140,140,140,140,140,140,140,140,140,140,140,140,140,140,140,140,140,140,0,
0,140,140,140,140,140,140,140,140,140,140,140,140,140,140,140,140,140,140,140,140,140,140,140,140,140,140,140,140,140,140,140,140,140,140,140,140,140,140,140,140,140,140,140,140,140,140,140,140,140,140,0,
0,140,140,140,140,140,140,140,140,140,140,140,140,140,140,140,140,140,140,140,140,140,140,140,140,140,140,140,140,140,140,140,140,140,140,140,140,140,140,140,140,140,140,140,140,140,140,140,140,140,140,0,
0,140,140,140,140,140,140,140,140,140,140,140,140,140,140,140,140,140,140,140,140,140,140,140,140,140,140,140,140,140,140,140,140,140,140,140,140,140,140,140,140,140,140,140,140,140,140,140,140,140,140,0,
0,140,140,140,140,140,140,140,140,140,140,140,140,140,140,140,140,140,140,140,140,140,140,140,140,140,140,140,140,140,140,140,140,140,140,140,140,140,140,140,140,140,140,140,140,140,140,140,140,140,140,0,
0,140,140,140,140,140,140,140,140,140,140,140,140,140,140,140,140,140,140,140,140,140,140,140,140,140,140,140,140,140,140,140,140,140,140,140,140,140,140,140,140,140,140,140,140,140,140,140,140,140,140,0,
0,140,140,140,140,140,140,140,140,140,140,140,140,140,140,140,140,140,140,140,140,140,140,140,140,140,140,140,140,140,140,140,140,140,140,140,140,140,140,140,140,140,140,140,140,140,140,140,140,140,140,0,
0,140,140,140,140,140,140,140,140,140,140,140,140,140,140,140,140,140,140,140,140,140,140,140,140,140,140,140,140,140,140,140,140,140,140,140,140,140,140,140,140,140,140,140,140,140,140,140,140,140,140,0,
0,140,140,140,140,140,140,140,140,140,140,140,140,140,140,140,140,140,140,140,140,140,140,140,140,140,140,140,140,140,140,140,140,140,140,140,140,140,140,140,140,140,140,140,140,140,140,140,140,140,140,0,
0,140,140,140,140,140,140,140,140,140,140,140,140,140,140,140,140,140,140,140,140,140,140,140,140,140,140,140,140,140,140,140,140,140,140,140,140,140,140,140,140,140,140,140,140,140,140,140,140,140,140,0,
0,140,140,140,140,140,140,140,140,140,140,140,140,140,140,140,140,140,140,140,140,140,140,140,140,140,140,140,140,140,140,140,140,140,140,140,140,140,140,140,140,140,140,140,140,140,140,140,140,140,140,0,
0,140,140,140,140,140,140,140,140,140,140,140,140,140,140,140,140,140,140,140,140,140,140,140,140,140,140,140,140,140,140,140,140,140,140,140,140,140,140,140,140,140,140,140,140,140,140,140,140,140,140,0
</data>
 </layer>
 <layer id="12" name="obj" width="52" height="72">
  <data encoding="csv">
1,2,2,2,2,3,3,3,2,2,2,2,2,2,2,2,2,4,2,2,2,2,2,2,2,2,2,2,2,2,3,2,2,2,2,2,2,2,2,2,2,4,2,2,2,2,2,2,2,2,2,6,
13,14,14,14,14,7,8,9,14,14,14,14,14,14,14,14,14,16,14,14,14,14,14,14,14,14,14,14,14,14,15,14,14,14,14,14,14,14,14,14,14,16,14,14,14,14,14,14,14,14,14,18,
25,26,26,26,26,19,20,21,26,26,26,26,26,26,26,26,26,28,26,26,26,26,26,26,26,26,26,26,26,26,27,26,26,26,26,26,26,26,26,26,26,28,26,26,26,26,26,26,26,26,26,30,
109,0,0,0,0,0,0,0,0,0,0,0,0,0,0,0,0,0,0,0,0,0,0,0,0,0,0,0,0,0,0,0,0,0,0,0,0,0,0,0,0,0,0,0,0,0,0,0,0,0,0,114,
109,0,0,0,0,0,0,0,0,0,0,0,0,0,0,0,0,0,0,0,0,0,0,0,0,0,0,0,0,0,0,0,0,0,0,0,0,0,0,0,0,0,0,0,0,0,0,0,0,0,0,114,
109,0,0,0,0,0,0,0,0,0,0,0,0,0,0,0,0,0,0,0,0,0,0,0,0,0,0,0,0,0,0,0,0,0,0,0,0,0,0,0,0,0,0,0,0,0,0,0,0,0,0,114,
109,0,0,0,0,0,0,0,0,0,0,0,0,0,0,0,0,0,0,0,0,0,0,0,0,0,0,0,0,0,0,0,0,0,0,0,0,0,0,0,0,0,0,0,0,0,0,0,0,0,0,114,
73,0,0,0,0,0,0,0,0,0,0,0,0,0,0,0,0,0,0,0,0,0,0,0,0,0,0,0,0,0,0,0,0,0,0,0,0,0,0,0,0,0,0,0,0,0,0,0,0,0,0,114,
85,0,0,0,0,0,0,0,0,0,0,0,0,0,0,0,0,0,0,0,0,0,0,0,0,0,0,0,0,0,0,0,0,0,0,0,0,0,0,0,0,0,0,0,0,0,0,0,0,0,0,78,
109,0,0,0,0,0,0,0,0,0,0,0,0,0,0,0,0,0,0,0,0,0,0,0,0,0,0,0,0,0,0,0,0,0,0,0,0,0,0,0,0,0,0,0,0,0,0,0,0,0,0,90,
109,0,0,0,0,0,0,0,0,0,0,0,0,0,0,0,0,0,0,0,0,0,0,0,0,0,0,0,0,0,0,0,0,0,0,0,0,0,0,0,0,0,0,0,0,0,0,0,0,0,0,114,
109,0,0,0,0,0,0,0,0,0,0,0,0,0,0,0,0,0,0,0,0,0,0,0,0,0,0,0,0,0,0,0,0,0,0,0,0,0,0,0,0,0,0,0,0,0,0,0,0,0,0,114,
109,0,0,0,0,0,0,0,0,0,0,0,0,0,0,0,0,0,0,0,0,0,0,0,0,0,0,0,0,0,0,0,0,0,0,0,0,0,0,0,0,0,0,0,0,0,0,0,0,0,0,114,
109,0,0,0,0,0,0,0,0,0,0,0,0,0,0,0,0,0,0,0,0,0,0,0,0,0,0,0,0,0,0,0,0,0,0,0,0,0,0,0,0,0,0,0,0,0,0,0,0,0,0,114,
109,0,0,0,0,0,0,0,0,0,0,0,0,0,0,0,0,0,0,0,0,0,0,0,0,0,0,0,0,0,0,0,0,0,0,0,0,0,0,0,0,0,0,0,0,0,0,0,0,0,0,114,
1,2,2,2,2,2,3,3,2,2,2,2,2,2,4,2,2,2,2,2,2,2,75,0,0,0,0,0,0,0,0,0,0,0,0,0,0,0,0,0,0,0,0,0,0,0,0,0,0,0,0,114,
13,14,14,14,14,14,15,15,14,14,14,14,14,14,16,14,14,14,14,14,14,14,77,0,0,0,0,0,0,0,0,0,0,0,0,0,0,0,0,0,0,0,0,0,0,0,0,0,0,0,0,114,
25,26,26,26,26,26,27,27,26,26,26,26,26,26,28,26,26,26,26,26,26,26,87,0,0,0,0,0,0,0,0,0,0,0,0,0,0,0,0,0,0,0,0,0,0,0,0,0,0,0,0,114,
109,0,0,0,0,0,0,0,0,0,0,0,0,0,0,0,0,0,0,0,0,0,0,0,0,0,0,0,0,0,0,0,0,0,0,0,0,0,0,0,0,0,0,0,0,0,0,0,0,0,0,114,
109,0,0,0,0,0,0,0,0,0,0,0,0,0,0,0,0,0,0,0,0,0,0,0,0,0,0,0,0,0,0,0,0,0,0,0,0,0,0,0,0,0,0,0,0,0,0,0,0,0,0,114,
109,0,0,0,0,0,0,0,0,0,0,0,0,0,0,0,0,0,0,0,0,0,0,0,0,0,0,0,0,0,0,0,0,0,0,0,0,0,0,0,0,0,0,0,0,0,0,0,0,0,0,114,
109,0,0,0,0,0,0,0,0,0,0,0,0,0,0,0,0,0,0,0,0,0,0,0,0,0,0,0,0,0,0,0,0,0,0,0,0,0,0,0,0,0,0,0,0,0,0,0,0,0,0,78,
109,0,0,0,0,0,0,0,0,0,0,0,0,0,0,0,0,0,0,0,0,0,0,0,0,0,0,0,0,0,0,0,0,0,0,0,0,0,0,0,0,0,0,0,0,0,0,0,0,0,0,90,
109,0,0,0,0,0,0,0,0,0,0,0,0,0,0,0,0,0,0,0,0,0,0,0,0,0,0,0,0,0,0,0,0,0,0,0,0,0,0,0,0,0,0,0,0,0,0,0,0,0,0,114,
73,0,0,0,0,0,0,0,0,0,0,0,0,0,0,0,0,0,0,0,0,0,0,0,0,0,0,0,0,0,0,0,0,0,0,0,0,0,0,0,0,0,0,0,0,0,0,0,0,0,0,114,
85,0,0,0,0,0,0,0,0,0,0,0,0,0,0,0,0,0,0,0,0,0,0,0,0,0,0,0,0,0,0,0,0,0,0,0,0,0,0,0,0,0,0,0,0,0,0,0,0,0,0,114,
109,0,0,0,0,0,0,0,0,0,0,0,0,0,0,0,0,0,0,0,0,0,0,0,0,0,0,0,0,0,0,0,0,0,0,0,0,0,0,0,0,0,0,0,0,0,0,0,0,0,0,114,
109,0,0,0,0,0,0,0,0,0,0,0,0,0,0,0,0,0,0,0,0,0,0,0,0,0,0,0,0,0,0,0,0,0,0,0,0,0,0,0,0,0,0,0,0,0,0,0,0,0,0,114,
109,0,0,0,0,0,0,0,0,0,0,0,0,0,0,0,0,0,0,0,0,0,0,0,0,0,0,0,0,0,0,0,0,0,0,0,0,0,0,0,0,0,0,0,0,0,0,0,0,0,0,114,
109,0,0,0,0,0,0,0,0,0,0,0,0,0,0,0,0,0,0,0,0,0,0,0,0,0,0,0,0,0,0,0,0,0,0,0,0,0,0,0,0,0,0,0,0,0,0,0,0,0,0,114,
109,0,0,0,0,0,0,0,0,0,0,0,0,0,0,0,0,0,0,0,0,0,0,0,0,0,0,0,0,0,0,0,0,0,0,0,0,0,0,0,0,0,0,0,0,0,0,0,0,0,0,114,
109,0,0,0,0,0,0,0,0,0,0,0,0,0,0,0,0,0,0,74,2,2,2,2,2,3,3,3,2,2,2,4,2,2,2,2,2,2,2,3,3,2,2,2,2,2,2,2,2,2,2,6,
109,0,0,0,0,0,0,0,0,0,0,0,0,0,0,0,0,0,0,76,14,14,14,14,14,15,15,15,14,14,14,16,14,14,14,14,14,14,14,15,15,14,14,14,14,14,14,14,14,14,14,18,
109,0,0,0,0,0,0,0,0,0,0,0,0,0,0,0,0,0,0,86,26,26,26,26,26,27,27,27,26,26,26,28,26,26,26,26,26,26,26,27,27,26,26,26,26,26,26,26,26,26,26,30,
109,0,0,0,0,0,0,0,0,0,0,0,0,0,0,0,0,0,0,0,0,0,0,0,0,0,0,0,0,0,0,0,0,0,0,0,0,0,0,0,0,0,0,0,0,0,0,0,0,0,0,114,
109,0,0,0,0,0,0,0,0,0,0,0,0,0,0,0,0,0,0,0,0,0,0,0,0,0,0,0,0,0,0,0,0,0,0,0,0,0,0,0,0,0,0,0,0,0,0,0,0,0,0,114,
109,0,0,0,0,0,0,0,0,0,0,0,0,0,0,0,0,0,0,0,0,0,0,0,0,0,0,0,0,0,0,0,0,0,0,0,0,0,0,0,0,0,0,0,0,0,0,0,0,0,0,114,
109,0,0,0,0,0,0,0,0,0,0,0,0,0,0,0,0,0,0,0,0,0,0,0,0,0,0,0,0,0,0,0,0,0,0,0,0,0,0,0,0,0,0,0,0,0,0,0,0,0,0,114,
109,0,0,0,0,0,0,0,0,0,0,0,0,0,0,0,0,0,0,0,0,0,0,0,0,0,0,0,0,0,0,0,0,0,0,0,0,0,0,0,0,0,0,0,0,0,0,0,0,0,0,114,
109,0,0,0,0,0,0,0,0,0,0,0,0,0,0,0,0,0,0,0,0,0,0,0,0,0,0,0,0,0,0,0,0,0,0,0,0,0,0,0,0,0,0,0,0,0,0,0,0,0,0,114,
73,0,0,0,0,0,0,0,0,0,0,0,0,0,0,0,0,0,0,0,0,0,0,0,0,0,0,0,0,0,0,0,0,0,0,0,0,0,0,0,0,0,0,0,0,0,0,0,0,0,0,114,
85,0,0,0,0,0,0,0,0,0,0,0,0,0,0,0,0,0,0,0,0,0,0,0,0,0,0,0,0,0,0,0,0,0,0,0,0,0,0,0,0,0,0,0,0,0,0,0,0,0,0,78,
109,0,0,0,0,0,0,0,0,0,0,0,0,0,0,0,0,0,0,0,0,0,0,0,0,0,0,0,0,0,0,0,0,0,0,0,0,0,0,0,0,0,0,0,0,0,0,0,0,0,0,90,
109,0,0,0,0,0,0,0,0,0,0,0,0,0,0,0,0,0,0,0,0,0,0,0,0,0,0,0,0,0,0,0,0,0,0,0,0,0,0,0,0,0,0,0,0,0,0,0,0,0,0,114,
109,0,0,0,0,0,0,0,0,0,0,0,0,0,0,0,0,0,0,0,0,0,0,0,0,0,0,0,0,0,0,0,0,0,0,0,0,0,0,0,0,0,0,0,0,0,0,0,0,0,0,114,
109,0,0,0,0,0,0,0,0,0,0,0,0,0,0,0,0,0,0,0,0,0,0,0,0,0,0,0,0,0,0,0,0,0,0,0,0,0,0,0,0,0,0,0,0,0,0,0,0,0,0,114,
109,0,0,0,0,0,0,0,0,0,0,0,0,0,0,0,0,0,0,0,0,0,0,0,0,0,0,0,0,0,0,0,0,0,0,0,0,0,0,0,0,0,0,0,0,0,0,0,0,0,0,114,
109,0,0,0,0,0,0,0,0,0,0,0,0,0,0,0,0,0,0,0,0,0,0,0,0,0,0,0,0,0,0,0,0,0,0,0,0,0,0,0,0,0,0,0,0,0,0,0,0,0,0,114,
109,0,0,0,0,0,0,0,0,0,0,0,0,0,0,0,0,0,0,0,0,0,0,0,0,0,0,0,0,0,0,0,0,0,0,0,0,0,0,0,0,0,0,0,0,0,0,0,0,0,0,114,
1,2,2,2,2,2,3,3,3,2,2,2,2,2,2,2,2,2,2,2,2,3,2,2,2,2,2,2,3,2,2,2,75,0,0,0,0,0,0,0,0,0,0,0,0,0,0,0,0,0,0,114,
13,14,14,14,14,14,15,15,15,14,14,14,14,14,14,14,14,14,14,14,14,15,14,14,14,14,14,14,15,14,14,14,77,0,0,0,0,0,0,0,0,0,0,0,0,0,0,0,0,0,0,114,
25,26,26,26,26,26,27,27,27,26,26,26,26,26,26,26,26,26,26,26,26,27,26,26,26,26,26,26,27,26,26,26,87,0,0,0,0,0,0,0,0,0,0,0,0,0,0,0,0,0,0,114,
109,0,0,0,0,0,0,0,0,0,0,0,0,0,0,0,0,0,0,0,0,0,0,0,0,0,0,0,0,0,0,0,0,0,0,0,0,0,0,0,0,0,0,0,0,0,0,0,0,0,0,114,
109,0,0,0,0,0,0,0,0,0,0,0,0,0,0,0,0,0,0,0,0,0,0,0,0,0,0,0,0,0,0,0,0,0,0,0,0,0,0,0,0,0,0,0,0,0,0,0,0,0,0,114,
109,0,0,0,0,0,0,0,0,0,0,0,0,0,0,0,0,0,0,0,0,0,0,0,0,0,0,0,0,0,0,0,0,0,0,0,0,0,0,0,0,0,0,0,0,0,0,0,0,0,0,114,
109,0,0,0,0,0,0,0,0,0,0,0,0,0,0,0,0,0,0,0,0,0,0,0,0,0,0,0,0,0,0,0,0,0,0,0,0,0,0,0,0,0,0,0,0,0,0,0,0,0,0,114,
109,0,0,0,0,0,0,0,0,0,0,0,0,0,0,0,0,0,0,0,0,0,0,0,0,0,0,0,0,0,0,0,0,0,0,0,0,0,0,0,0,0,0,0,0,0,0,0,0,0,0,114,
109,0,0,0,0,0,0,0,0,0,0,0,0,0,0,0,0,0,0,0,0,0,0,0,0,0,0,0,0,0,0,0,0,0,0,0,0,0,0,0,0,0,0,0,0,0,0,0,0,0,0,114,
109,0,0,0,0,0,0,0,0,0,0,0,0,0,0,0,0,0,0,0,0,0,0,0,0,0,0,0,0,0,0,0,0,0,0,0,0,0,0,0,0,0,0,0,0,0,0,0,0,0,0,114,
109,0,0,0,0,0,0,0,0,0,0,0,0,0,0,0,0,0,0,0,0,0,0,0,0,0,0,0,0,0,0,0,0,0,0,0,0,0,0,0,0,0,0,0,0,0,0,0,0,0,0,114,
109,0,0,0,0,0,0,0,0,0,0,0,0,0,0,0,0,0,0,0,0,0,0,0,0,0,0,0,0,0,0,0,0,0,0,0,0,0,0,0,0,0,0,0,0,0,0,0,0,0,0,114,
109,0,0,0,0,0,0,0,0,0,0,0,0,0,0,0,0,0,0,0,0,0,0,0,0,0,0,0,0,0,0,0,0,0,0,0,0,0,0,0,0,0,0,0,0,0,0,0,0,0,0,114,
109,0,0,0,0,0,0,0,0,0,0,0,0,0,0,0,0,0,0,0,0,0,0,0,0,0,0,0,0,0,0,0,0,0,0,0,0,0,0,0,0,0,0,0,0,0,0,0,0,0,0,78,
109,0,0,0,0,0,0,0,0,0,0,0,0,0,0,0,0,0,0,0,0,0,0,0,0,0,0,0,0,0,0,0,0,0,0,0,0,0,0,0,0,0,0,0,0,0,0,0,0,0,0,90,
73,0,0,0,0,0,0,0,0,0,0,0,0,0,0,0,0,0,0,0,0,0,0,0,0,0,0,0,0,0,0,0,0,0,0,0,0,0,0,0,0,0,0,0,0,0,0,0,0,0,0,114,
85,0,0,0,0,0,0,0,0,0,0,0,0,0,0,0,0,0,0,0,0,0,0,0,0,0,0,0,0,0,0,0,0,0,0,0,0,0,0,0,0,0,0,0,0,0,0,0,0,0,0,114,
109,0,0,0,0,0,0,0,0,0,0,0,0,0,0,0,0,0,0,0,0,0,0,0,0,0,0,0,0,0,0,0,0,0,0,0,0,0,0,0,0,0,0,0,0,0,0,0,0,0,0,114,
109,0,0,0,0,0,0,0,0,0,0,0,0,0,0,0,0,0,0,0,0,0,0,0,0,0,0,0,0,0,0,0,0,0,0,0,0,0,0,0,0,0,0,0,0,0,0,0,0,0,0,114,
109,0,0,0,0,0,0,0,0,0,0,0,0,0,0,0,0,0,0,0,0,0,0,0,0,0,0,0,0,0,0,0,0,0,0,0,0,0,0,0,0,0,0,0,0,0,0,0,0,0,0,114,
109,0,0,0,0,0,0,0,0,0,0,0,0,0,0,0,0,0,0,0,0,0,0,0,0,0,0,0,0,0,0,0,0,0,0,0,0,0,0,0,0,0,0,0,0,0,0,0,0,0,0,114,
109,0,0,0,0,0,0,0,0,0,0,0,0,0,0,0,0,0,0,0,0,0,0,0,0,0,0,0,0,0,0,0,0,0,0,0,0,0,0,0,0,0,0,0,0,0,0,0,0,0,0,114,
121,122,122,122,122,122,122,122,122,122,122,122,122,122,122,125,122,122,122,122,122,122,122,122,122,122,122,122,122,122,122,122,122,122,122,122,122,122,122,125,122,122,122,122,122,122,122,125,122,122,122,126
</data>
 </layer>
 <objectgroup id="17" name="fall_ground">
  <object id="658" gid="142" x="208" y="80" width="16" height="16"/>
  <object id="659" gid="142" x="208" y="96" width="16" height="16"/>
  <object id="660" gid="142" x="208" y="96" width="16" height="16"/>
  <object id="661" gid="142" x="208" y="112" width="16" height="16"/>
  <object id="662" gid="142" x="208" y="128" width="16" height="16"/>
  <object id="663" gid="142" x="192" y="144" width="16" height="16"/>
  <object id="664" gid="142" x="176" y="144" width="16" height="16"/>
  <object id="665" gid="142" x="208" y="144" width="16" height="16"/>
  <object id="666" gid="142" x="176" y="160" width="16" height="16"/>
  <object id="667" gid="142" x="144" y="160" width="16" height="16"/>
  <object id="668" gid="142" x="160" y="160" width="16" height="16"/>
  <object id="669" gid="142" x="160" y="176" width="16" height="16"/>
  <object id="670" gid="142" x="144" y="176" width="16" height="16"/>
  <object id="671" gid="142" x="144" y="192" width="16" height="16"/>
  <object id="672" gid="142" x="160" y="192" width="16" height="16"/>
  <object id="673" gid="142" x="176" y="192" width="16" height="16"/>
  <object id="674" gid="142" x="208" y="192" width="16" height="16"/>
  <object id="675" gid="142" x="192" y="192" width="16" height="16"/>
  <object id="676" gid="142" x="208" y="208" width="16" height="16"/>
  <object id="677" gid="142" x="208" y="224" width="16" height="16"/>
  <object id="678" gid="142" x="256" y="144" width="16" height="16"/>
  <object id="679" gid="142" x="256" y="144" width="16" height="16"/>
  <object id="680" gid="142" x="256" y="160" width="16" height="16"/>
  <object id="681" gid="142" x="352" y="144" width="16" height="16"/>
  <object id="682" gid="142" x="352" y="160" width="16" height="16"/>
  <object id="683" gid="142" x="352" y="176" width="16" height="16"/>
  <object id="684" gid="142" x="336" y="176" width="16" height="16"/>
  <object id="685" gid="142" x="320" y="176" width="16" height="16"/>
  <object id="686" gid="142" x="304" y="176" width="16" height="16"/>
  <object id="687" gid="142" x="352" y="112" width="16" height="16"/>
  <object id="688" gid="142" x="352" y="128" width="16" height="16"/>
  <object id="689" gid="142" x="368" y="112" width="16" height="16"/>
  <object id="690" gid="142" x="384" y="112" width="16" height="16"/>
  <object id="691" gid="142" x="416" y="112" width="16" height="16"/>
  <object id="692" gid="142" x="448" y="112" width="16" height="16"/>
  <object id="693" gid="142" x="400" y="112" width="16" height="16"/>
  <object id="694" gid="142" x="416" y="176" width="16" height="16"/>
  <object id="695" gid="142" x="416" y="176" width="16" height="16"/>
  <object id="696" gid="142" x="400" y="192" width="16" height="16"/>
  <object id="697" gid="142" x="400" y="208" width="16" height="16"/>
  <object id="698" gid="142" x="384" y="208" width="16" height="16"/>
  <object id="699" gid="142" x="480" y="144" width="16" height="16"/>
  <object id="700" gid="142" x="464" y="144" width="16" height="16"/>
  <object id="701" gid="142" x="400" y="224" width="16" height="16"/>
  <object id="702" gid="142" x="416" y="224" width="16" height="16"/>
  <object id="703" gid="142" x="432" y="224" width="16" height="16"/>
  <object id="704" gid="142" x="432" y="240" width="16" height="16"/>
  <object id="705" gid="142" x="448" y="240" width="16" height="16"/>
  <object id="706" gid="142" x="448" y="256" width="16" height="16"/>
  <object id="707" gid="142" x="464" y="256" width="16" height="16"/>
  <object id="708" gid="142" x="512" y="208" width="16" height="16"/>
  <object id="709" gid="142" x="512" y="224" width="16" height="16"/>
  <object id="710" gid="142" x="512" y="240" width="16" height="16"/>
  <object id="711" gid="142" x="496" y="240" width="16" height="16"/>
  <object id="712" gid="142" x="528" y="144" width="16" height="16"/>
  <object id="713" gid="142" x="544" y="144" width="16" height="16"/>
  <object id="714" gid="142" x="544" y="160" width="16" height="16"/>
  <object id="715" gid="142" x="544" y="176" width="16" height="16"/>
  <object id="716" gid="142" x="592" y="80" width="16" height="16"/>
  <object id="717" gid="142" x="592" y="96" width="16" height="16"/>
  <object id="718" gid="142" x="592" y="112" width="16" height="16"/>
  <object id="719" gid="142" x="608" y="128" width="16" height="16"/>
  <object id="720" gid="142" x="608" y="112" width="16" height="16"/>
  <object id="721" gid="142" x="512" y="96" width="16" height="16"/>
  <object id="722" gid="142" x="528" y="96" width="16" height="16"/>
  <object id="723" gid="142" x="624" y="128" width="16" height="16"/>
  <object id="724" gid="142" x="624" y="112" width="16" height="16"/>
  <object id="725" gid="142" x="624" y="144" width="16" height="16"/>
  <object id="726" gid="142" x="624" y="160" width="16" height="16"/>
  <object id="727" gid="142" x="656" y="160" width="16" height="16"/>
  <object id="728" gid="142" x="672" y="160" width="16" height="16"/>
  <object id="729" gid="142" x="640" y="160" width="16" height="16"/>
  <object id="730" gid="142" x="720" y="160" width="16" height="16"/>
  <object id="731" gid="142" x="752" y="160" width="16" height="16"/>
  <object id="732" gid="142" x="784" y="160" width="16" height="16"/>
  <object id="733" gid="142" x="800" y="160" width="16" height="16"/>
  <object id="734" gid="142" x="768" y="160" width="16" height="16"/>
  <object id="735" gid="142" x="656" y="272" width="16" height="16"/>
  <object id="736" gid="142" x="688" y="272" width="16" height="16"/>
  <object id="737" gid="142" x="704" y="272" width="16" height="16"/>
  <object id="738" gid="142" x="720" y="272" width="16" height="16"/>
  <object id="739" gid="142" x="736" y="272" width="16" height="16"/>
  <object id="740" gid="142" x="720" y="256" width="16" height="16"/>
  <object id="741" gid="142" x="704" y="256" width="16" height="16"/>
  <object id="742" gid="142" x="720" y="240" width="16" height="16"/>
  <object id="743" gid="142" x="736" y="240" width="16" height="16"/>
  <object id="744" gid="142" x="736" y="256" width="16" height="16"/>
  <object id="745" gid="142" x="752" y="256" width="16" height="16"/>
  <object id="746" gid="142" x="752" y="240" width="16" height="16"/>
  <object id="747" gid="142" x="704" y="240" width="16" height="16"/>
  <object id="748" gid="142" x="736" y="224" width="16" height="16"/>
  <object id="749" gid="142" x="752" y="224" width="16" height="16"/>
  <object id="750" gid="142" x="544" y="336" width="16" height="16"/>
  <object id="751" gid="142" x="576" y="336" width="16" height="16"/>
  <object id="752" gid="142" x="608" y="336" width="16" height="16"/>
  <object id="753" gid="142" x="592" y="336" width="16" height="16"/>
  <object id="754" gid="142" x="496" y="288" width="16" height="16"/>
  <object id="755" gid="142" x="528" y="288" width="16" height="16"/>
  <object id="756" gid="142" x="528" y="288" width="16" height="16"/>
  <object id="757" gid="142" x="544" y="288" width="16" height="16"/>
  <object id="758" gid="142" x="544" y="272" width="16" height="16"/>
  <object id="759" gid="142" x="560" y="256" width="16" height="16"/>
  <object id="760" gid="142" x="592" y="304" width="16" height="16"/>
  <object id="761" gid="142" x="688" y="304" width="16" height="16"/>
  <object id="762" gid="142" x="608" y="304" width="16" height="16"/>
  <object id="763" gid="142" x="624" y="304" width="16" height="16"/>
  <object id="764" gid="142" x="640" y="304" width="16" height="16"/>
  <object id="765" gid="142" x="656" y="304" width="16" height="16"/>
  <object id="766" gid="142" x="640" y="416" width="16" height="16"/>
  <object id="767" gid="142" x="624" y="416" width="16" height="16"/>
  <object id="768" gid="142" x="608" y="416" width="16" height="16"/>
  <object id="769" gid="142" x="656" y="416" width="16" height="16"/>
  <object id="770" gid="142" x="672" y="416" width="16" height="16"/>
  <object id="771" gid="142" x="672" y="400" width="16" height="16"/>
  <object id="772" gid="142" x="672" y="384" width="16" height="16"/>
  <object id="773" gid="142" x="688" y="384" width="16" height="16"/>
  <object id="774" gid="142" x="704" y="464" width="16" height="16"/>
  <object id="775" gid="142" x="688" y="448" width="16" height="16"/>
  <object id="776" gid="142" x="752" y="288" width="16" height="16"/>
  <object id="777" gid="142" x="784" y="288" width="16" height="16"/>
  <object id="778" gid="142" x="768" y="288" width="16" height="16"/>
  <object id="779" gid="142" x="800" y="288" width="16" height="16"/>
  <object id="786" gid="142" x="736" y="448" width="16" height="16" rotation="180"/>
  <object id="787" gid="142" x="752" y="448" width="16" height="16" rotation="180"/>
  <object id="788" gid="142" x="768" y="448" width="16" height="16" rotation="180"/>
  <object id="789" gid="142" x="784" y="448" width="16" height="16" rotation="180"/>
  <object id="790" gid="142" x="800" y="448" width="16" height="16" rotation="180"/>
  <object id="791" gid="142" x="608" y="432" width="16" height="16" rotation="180"/>
  <object id="792" gid="142" x="608" y="448" width="16" height="16" rotation="180"/>
  <object id="793" gid="142" x="624" y="448" width="16" height="16" rotation="180"/>
  <object id="794" gid="142" x="640" y="464" width="16" height="16" rotation="180"/>
  <object id="795" gid="142" x="464" y="400" width="16" height="16" rotation="180"/>
  <object id="796" gid="142" x="464" y="416" width="16" height="16" rotation="180"/>
  <object id="797" gid="142" x="464" y="432" width="16" height="16" rotation="180"/>
  <object id="798" gid="142" x="464" y="464" width="16" height="16" rotation="180"/>
  <object id="799" gid="142" x="464" y="320" width="16" height="16" rotation="180"/>
  <object id="800" gid="142" x="432" y="320" width="16" height="16" rotation="180"/>
  <object id="801" gid="142" x="448" y="336" width="16" height="16" rotation="180"/>
  <object id="802" gid="142" x="448" y="320" width="16" height="16" rotation="180"/>
  <object id="803" gid="142" x="464" y="336" width="16" height="16" rotation="180"/>
  <object id="804" gid="142" x="464" y="304" width="16" height="16" rotation="180"/>
  <object id="805" gid="142" x="480" y="304" width="16" height="16" rotation="180"/>
  <object id="806" gid="142" x="496" y="304" width="16" height="16" rotation="180"/>
  <object id="807" gid="142" x="304" y="288" width="16" height="16" rotation="180"/>
  <object id="808" gid="142" x="304" y="304" width="16" height="16" rotation="180"/>
  <object id="809" gid="142" x="320" y="304" width="16" height="16" rotation="180"/>
  <object id="810" gid="142" x="336" y="304" width="16" height="16" rotation="180"/>
  <object id="811" gid="142" x="336" y="320" width="16" height="16" rotation="180"/>
  <object id="812" gid="142" x="352" y="320" width="16" height="16" rotation="180"/>
  <object id="813" gid="142" x="368" y="320" width="16" height="16" rotation="180"/>
  <object id="814" gid="142" x="368" y="336" width="16" height="16" rotation="180"/>
  <object id="815" gid="142" x="384" y="336" width="16" height="16" rotation="180"/>
  <object id="816" gid="142" x="304" y="384" width="16" height="16" rotation="180"/>
  <object id="817" gid="142" x="304" y="400" width="16" height="16" rotation="180"/>
  <object id="818" gid="142" x="304" y="416" width="16" height="16" rotation="180"/>
  <object id="819" gid="142" x="304" y="416" width="16" height="16" rotation="180"/>
  <object id="820" gid="142" x="320" y="416" width="16" height="16" rotation="180"/>
  <object id="821" gid="142" x="320" y="448" width="16" height="16" rotation="180"/>
  <object id="822" gid="142" x="272" y="352" width="16" height="16" rotation="180"/>
  <object id="823" gid="142" x="272" y="336" width="16" height="16" rotation="180"/>
  <object id="824" gid="142" x="240" y="320" width="16" height="16" rotation="180"/>
  <object id="825" gid="142" x="256" y="320" width="16" height="16" rotation="180"/>
  <object id="826" gid="142" x="368" y="464" width="16" height="16" rotation="180"/>
  <object id="827" gid="142" x="384" y="464" width="16" height="16" rotation="180"/>
  <object id="828" gid="142" x="416" y="464" width="16" height="16" rotation="180"/>
  <object id="829" gid="142" x="400" y="432" width="16" height="16" rotation="180"/>
  <object id="830" gid="142" x="400" y="400" width="16" height="16" rotation="180"/>
  <object id="831" gid="142" x="400" y="416" width="16" height="16" rotation="180"/>
  <object id="832" gid="142" x="400" y="416" width="16" height="16" rotation="180"/>
  <object id="833" gid="142" x="384" y="416" width="16" height="16" rotation="180"/>
  <object id="834" gid="142" x="368" y="416" width="16" height="16" rotation="180"/>
  <object id="835" gid="142" x="368" y="416" width="16" height="16" rotation="180"/>
  <object id="836" gid="142" x="368" y="400" width="16" height="16" rotation="180"/>
  <object id="837" gid="142" x="384" y="400" width="16" height="16" rotation="180"/>
  <object id="838" gid="142" x="176" y="336" width="16" height="16" rotation="180"/>
  <object id="839" gid="142" x="144" y="336" width="16" height="16" rotation="180"/>
  <object id="840" gid="142" x="160" y="336" width="16" height="16" rotation="180"/>
  <object id="841" gid="142" x="160" y="352" width="16" height="16" rotation="180"/>
  <object id="842" gid="142" x="176" y="352" width="16" height="16" rotation="180"/>
  <object id="843" gid="142" x="176" y="384" width="16" height="16" rotation="180"/>
  <object id="844" gid="142" x="176" y="416" width="16" height="16" rotation="180"/>
  <object id="845" gid="142" x="176" y="448" width="16" height="16" rotation="180"/>
  <object id="846" gid="142" x="176" y="464" width="16" height="16" rotation="180"/>
  <object id="847" gid="142" x="176" y="432" width="16" height="16" rotation="180"/>
  <object id="848" gid="142" x="208" y="384" width="16" height="16" rotation="180"/>
  <object id="849" gid="142" x="224" y="384" width="16" height="16" rotation="180"/>
  <object id="850" gid="142" x="32" y="496" width="16" height="16" rotation="180"/>
  <object id="851" gid="142" x="64" y="512" width="16" height="16" rotation="180"/>
  <object id="852" gid="142" x="96" y="496" width="16" height="16" rotation="180"/>
  <object id="857" gid="142" x="48" y="496" width="16" height="16" rotation="180"/>
  <object id="858" gid="142" x="64" y="496" width="16" height="16" rotation="180"/>
  <object id="859" gid="142" x="80" y="496" width="16" height="16" rotation="180"/>
  <object id="860" gid="142" x="160" y="528" width="16" height="16" rotation="180"/>
  <object id="861" gid="142" x="176" y="528" width="16" height="16" rotation="180"/>
  <object id="862" gid="142" x="192" y="528" width="16" height="16" rotation="180"/>
  <object id="863" gid="142" x="208" y="528" width="16" height="16" rotation="180"/>
  <object id="864" gid="142" x="224" y="512" width="16" height="16" rotation="180"/>
  <object id="865" gid="142" x="240" y="512" width="16" height="16" rotation="180"/>
  <object id="866" gid="142" x="256" y="512" width="16" height="16" rotation="180"/>
  <object id="868" gid="142" x="272" y="512" width="16" height="16" rotation="180"/>
  <object id="869" gid="142" x="272" y="496" width="16" height="16" rotation="180"/>
  <object id="870" gid="142" x="272" y="480" width="16" height="16" rotation="180"/>
  <object id="871" gid="142" x="288" y="480" width="16" height="16" rotation="180"/>
  <object id="872" gid="142" x="80" y="560" width="16" height="16" rotation="180"/>
  <object id="873" gid="142" x="96" y="560" width="16" height="16" rotation="180"/>
  <object id="874" gid="142" x="112" y="560" width="16" height="16" rotation="180"/>
  <object id="875" gid="142" x="144" y="560" width="16" height="16" rotation="180"/>
  <object id="876" gid="142" x="128" y="560" width="16" height="16" rotation="180"/>
  <object id="877" gid="142" x="320" y="544" width="16" height="16" rotation="180"/>
  <object id="878" gid="142" x="320" y="560" width="16" height="16" rotation="180"/>
  <object id="879" gid="142" x="320" y="576" width="16" height="16" rotation="180"/>
  <object id="880" gid="142" x="320" y="592" width="16" height="16" rotation="180"/>
  <object id="881" gid="142" x="320" y="608" width="16" height="16" rotation="180"/>
  <object id="882" gid="142" x="320" y="624" width="16" height="16" rotation="180"/>
  <object id="883" gid="142" x="320" y="640" width="16" height="16" rotation="180"/>
  <object id="884" gid="142" x="352" y="640" width="16" height="16" rotation="180"/>
  <object id="885" gid="142" x="320" y="688" width="16" height="16" rotation="180"/>
  <object id="886" gid="142" x="336" y="688" width="16" height="16" rotation="180"/>
  <object id="887" gid="142" x="352" y="688" width="16" height="16" rotation="180"/>
  <object id="888" gid="142" x="336" y="624" width="16" height="16" rotation="180"/>
  <object id="889" gid="142" x="352" y="592" width="16" height="16" rotation="180"/>
  <object id="891" gid="142" x="336" y="608" width="16" height="16" rotation="180"/>
  <object id="892" gid="142" x="384" y="624" width="16" height="16" rotation="180"/>
  <object id="893" gid="142" x="368" y="608" width="16" height="16" rotation="180"/>
  <object id="897" gid="142" x="416" y="688" width="16" height="16" rotation="90"/>
  <object id="898" gid="142" x="560" y="688" width="16" height="16" rotation="90"/>
  <object id="899" gid="142" x="624" y="640" width="16" height="16" rotation="90"/>
  <object id="900" gid="142" x="592" y="672" width="16" height="16" rotation="90"/>
  <object id="904" gid="142" x="576" y="672" width="16" height="16" rotation="90"/>
  <object id="905" gid="142" x="608" y="656" width="16" height="16" rotation="90"/>
  <object id="906" gid="142" x="432" y="560" width="16" height="16" rotation="90"/>
  <object id="907" gid="142" x="448" y="576" width="16" height="16" rotation="90"/>
  <object id="908" gid="142" x="464" y="560" width="16" height="16" rotation="90"/>
  <object id="909" gid="142" x="496" y="576" width="16" height="16" rotation="90"/>
  <object id="910" gid="142" x="480" y="576" width="16" height="16" rotation="90"/>
  <object id="911" gid="142" x="512" y="592" width="16" height="16" rotation="90"/>
  <object id="912" gid="142" x="512" y="624" width="16" height="16" rotation="90"/>
  <object id="913" gid="142" x="512" y="656" width="16" height="16" rotation="90"/>
  <object id="914" gid="142" x="512" y="672" width="16" height="16" rotation="90"/>
  <object id="915" gid="142" x="512" y="640" width="16" height="16" rotation="90"/>
  <object id="916" gid="142" x="400" y="592" width="16" height="16" rotation="90"/>
  <object id="917" gid="142" x="400" y="608" width="16" height="16" rotation="90"/>
  <object id="918" gid="142" x="400" y="560" width="16" height="16" rotation="90"/>
  <object id="919" gid="142" x="368" y="752" width="16" height="16" rotation="90"/>
  <object id="920" gid="142" x="384" y="752" width="16" height="16" rotation="90"/>
  <object id="921" gid="142" x="400" y="752" width="16" height="16" rotation="90"/>
  <object id="922" gid="142" x="432" y="768" width="16" height="16" rotation="90"/>
  <object id="923" gid="142" x="416" y="752" width="16" height="16" rotation="90"/>
  <object id="924" gid="142" x="496" y="768" width="16" height="16" rotation="90"/>
  <object id="925" gid="142" x="528" y="768" width="16" height="16" rotation="90"/>
  <object id="926" gid="142" x="560" y="768" width="16" height="16" rotation="90"/>
  <object id="927" gid="142" x="544" y="768" width="16" height="16" rotation="90"/>
  <object id="928" gid="142" x="512" y="768" width="16" height="16" rotation="90"/>
  <object id="929" gid="142" x="560" y="736" width="16" height="16" rotation="90"/>
  <object id="930" gid="142" x="560" y="752" width="16" height="16" rotation="90"/>
  <object id="931" gid="142" x="128" y="672" width="16" height="16" rotation="90"/>
  <object id="932" gid="142" x="144" y="672" width="16" height="16" rotation="90"/>
  <object id="933" gid="142" x="176" y="672" width="16" height="16" rotation="90"/>
  <object id="934" gid="142" x="160" y="672" width="16" height="16" rotation="90"/>
  <object id="935" gid="142" x="208" y="688" width="16" height="16" rotation="90"/>
  <object id="936" gid="142" x="192" y="688" width="16" height="16" rotation="90"/>
  <object id="937" gid="142" x="688" y="640" width="16" height="16" rotation="90"/>
  <object id="938" gid="142" x="704" y="640" width="16" height="16" rotation="90"/>
  <object id="939" gid="142" x="720" y="640" width="16" height="16" rotation="90"/>
  <object id="940" gid="142" x="736" y="640" width="16" height="16" rotation="90"/>
  <object id="941" gid="142" x="752" y="656" width="16" height="16" rotation="90"/>
  <object id="942" gid="142" x="752" y="640" width="16" height="16" rotation="90"/>
  <object id="943" gid="142" x="768" y="640" width="16" height="16" rotation="90"/>
  <object id="944" gid="142" x="784" y="656" width="16" height="16" rotation="90"/>
  <object id="945" gid="142" x="784" y="640" width="16" height="16" rotation="90"/>
  <object id="946" gid="142" x="656" y="544" width="16" height="16" rotation="90"/>
  <object id="947" gid="142" x="656" y="560" width="16" height="16" rotation="90"/>
  <object id="948" gid="142" x="656" y="592" width="16" height="16" rotation="90"/>
  <object id="949" gid="142" x="656" y="640" width="16" height="16" rotation="90"/>
  <object id="950" gid="142" x="656" y="672" width="16" height="16" rotation="90"/>
  <object id="951" gid="142" x="656" y="656" width="16" height="16" rotation="90"/>
  <object id="952" gid="142" x="656" y="624" width="16" height="16" rotation="90"/>
  <object id="953" gid="142" x="656" y="608" width="16" height="16" rotation="90"/>
  <object id="954" gid="142" x="656" y="768" width="16" height="16" rotation="90"/>
  <object id="955" gid="142" x="656" y="752" width="16" height="16" rotation="90"/>
  <object id="956" gid="142" x="656" y="736" width="16" height="16" rotation="90"/>
  <object id="957" gid="142" x="576" y="832" width="16" height="16" rotation="90"/>
  <object id="958" gid="142" x="592" y="832" width="16" height="16" rotation="90"/>
  <object id="959" gid="142" x="608" y="832" width="16" height="16" rotation="90"/>
  <object id="960" gid="142" x="624" y="832" width="16" height="16" rotation="90"/>
  <object id="961" gid="142" x="640" y="832" width="16" height="16" rotation="90"/>
  <object id="962" gid="142" x="656" y="896" width="16" height="16" rotation="90"/>
  <object id="963" gid="142" x="672" y="896" width="16" height="16" rotation="90"/>
  <object id="964" gid="142" x="688" y="912" width="16" height="16" rotation="90"/>
  <object id="965" gid="142" x="688" y="896" width="16" height="16" rotation="90"/>
  <object id="966" gid="142" x="704" y="896" width="16" height="16" rotation="90"/>
  <object id="967" gid="142" x="512" y="864" width="16" height="16" rotation="90"/>
  <object id="968" gid="142" x="544" y="880" width="16" height="16" rotation="90"/>
  <object id="969" gid="142" x="528" y="864" width="16" height="16" rotation="90"/>
  <object id="970" gid="142" x="544" y="864" width="16" height="16" rotation="90"/>
  <object id="971" gid="142" x="288" y="832" width="16" height="16" rotation="90"/>
  <object id="972" gid="142" x="288" y="848" width="16" height="16" rotation="90"/>
  <object id="973" gid="142" x="288" y="864" width="16" height="16" rotation="90"/>
  <object id="974" gid="142" x="288" y="880" width="16" height="16" rotation="90"/>
  <object id="975" gid="142" x="304" y="912" width="16" height="16" rotation="90"/>
  <object id="976" gid="142" x="304" y="896" width="16" height="16" rotation="90"/>
  <object id="977" gid="142" x="288" y="896" width="16" height="16" rotation="90"/>
  <object id="978" gid="142" x="320" y="912" width="16" height="16" rotation="90"/>
  <object id="979" gid="142" x="336" y="912" width="16" height="16" rotation="90"/>
  <object id="980" gid="142" x="336" y="928" width="16" height="16" rotation="90"/>
  <object id="981" gid="142" x="320" y="928" width="16" height="16" rotation="90"/>
  <object id="982" gid="142" x="320" y="944" width="16" height="16" rotation="90"/>
  <object id="983" gid="142" x="320" y="1120" width="16" height="16" rotation="90"/>
  <object id="984" gid="142" x="320" y="1104" width="16" height="16" rotation="90"/>
  <object id="986" gid="142" x="320" y="1088" width="16" height="16" rotation="90"/>
  <object id="987" gid="142" x="320" y="1072" width="16" height="16" rotation="90"/>
  <object id="988" gid="142" x="336" y="1072" width="16" height="16" rotation="90"/>
  <object id="989" gid="142" x="336" y="1088" width="16" height="16" rotation="90"/>
  <object id="990" gid="142" x="336" y="1056" width="16" height="16" rotation="90"/>
  <object id="991" gid="142" x="352" y="1056" width="16" height="16" rotation="90"/>
  <object id="992" gid="142" x="352" y="1040" width="16" height="16" rotation="90"/>
  <object id="993" gid="142" x="352" y="1024" width="16" height="16" rotation="90"/>
  <object id="994" gid="142" x="352" y="1008" width="16" height="16" rotation="90"/>
  <object id="995" gid="142" x="352" y="992" width="16" height="16" rotation="90"/>
  <object id="996" gid="142" x="368" y="992" width="16" height="16" rotation="90"/>
  <object id="997" gid="142" x="368" y="1008" width="16" height="16" rotation="90"/>
  <object id="998" gid="142" x="400" y="832" width="16" height="16" rotation="90"/>
  <object id="999" gid="142" x="400" y="848" width="16" height="16" rotation="90"/>
  <object id="1000" gid="142" x="400" y="880" width="16" height="16" rotation="90"/>
  <object id="1001" gid="142" x="400" y="864" width="16" height="16" rotation="90"/>
  <object id="1002" gid="142" x="400" y="912" width="16" height="16" rotation="90"/>
  <object id="1003" gid="142" x="384" y="912" width="16" height="16" rotation="90"/>
  <object id="1004" gid="142" x="384" y="896" width="16" height="16" rotation="90"/>
  <object id="1005" gid="142" x="400" y="896" width="16" height="16" rotation="90"/>
  <object id="1006" gid="142" x="432" y="944" width="16" height="16" rotation="90"/>
  <object id="1007" gid="142" x="432" y="960" width="16" height="16" rotation="90"/>
  <object id="1008" gid="142" x="480" y="1040" width="16" height="16" rotation="90"/>
  <object id="1009" gid="142" x="496" y="1040" width="16" height="16" rotation="90"/>
  <object id="1010" gid="142" x="512" y="1040" width="16" height="16" rotation="90"/>
  <object id="1011" gid="142" x="528" y="1040" width="16" height="16" rotation="90"/>
  <object id="1015" gid="142" x="544" y="1056" width="16" height="16" rotation="90"/>
  <object id="1016" gid="142" x="544" y="1040" width="16" height="16" rotation="90"/>
  <object id="1017" gid="142" x="736" y="944" width="16" height="16" rotation="90"/>
  <object id="1018" gid="142" x="752" y="944" width="16" height="16" rotation="90"/>
  <object id="1019" gid="142" x="784" y="944" width="16" height="16" rotation="90"/>
  <object id="1020" gid="142" x="768" y="944" width="16" height="16" rotation="90"/>
  <object id="1021" gid="142" x="592" y="1104" width="16" height="16" rotation="90"/>
  <object id="1022" gid="142" x="624" y="1104" width="16" height="16" rotation="90"/>
  <object id="1023" gid="142" x="640" y="1104" width="16" height="16" rotation="90"/>
  <object id="1024" gid="142" x="656" y="1104" width="16" height="16" rotation="90"/>
  <object id="1025" gid="142" x="688" y="1104" width="16" height="16" rotation="90"/>
  <object id="1026" gid="142" x="688" y="1088" width="16" height="16" rotation="90"/>
  <object id="1027" gid="142" x="720" y="1056" width="16" height="16" rotation="90"/>
  <object id="1028" gid="142" x="736" y="1040" width="16" height="16" rotation="90"/>
  <object id="1029" gid="142" x="736" y="1024" width="16" height="16" rotation="90"/>
  <object id="1030" gid="142" x="736" y="1008" width="16" height="16" rotation="90"/>
  <object id="1031" gid="142" x="736" y="992" width="16" height="16" rotation="90"/>
  <object id="1032" gid="142" x="752" y="992" width="16" height="16" rotation="90"/>
  <object id="1033" gid="142" x="64" y="992" width="16" height="16" rotation="90"/>
  <object id="1034" gid="142" x="80" y="992" width="16" height="16" rotation="90"/>
  <object id="1035" gid="142" x="96" y="992" width="16" height="16" rotation="90"/>
  <object id="1036" gid="142" x="112" y="992" width="16" height="16" rotation="90"/>
  <object id="1037" gid="142" x="128" y="992" width="16" height="16" rotation="90"/>
  <object id="1038" gid="142" x="144" y="992" width="16" height="16" rotation="90"/>
  <object id="1039" gid="142" x="240" y="848" width="16" height="16" rotation="90"/>
  <object id="1040" gid="142" x="240" y="864" width="16" height="16" rotation="90"/>
  <object id="1041" gid="142" x="240" y="896" width="16" height="16" rotation="90"/>
  <object id="1042" gid="142" x="224" y="896" width="16" height="16" rotation="90"/>
  <object id="1043" gid="142" x="240" y="880" width="16" height="16" rotation="90"/>
  <object id="1044" gid="142" x="48" y="864" width="16" height="16" rotation="90"/>
  <object id="1045" gid="142" x="64" y="864" width="16" height="16" rotation="90"/>
  <object id="1046" gid="142" x="80" y="864" width="16" height="16" rotation="90"/>
  <object id="1047" gid="142" x="192" y="944" width="16" height="16" rotation="90"/>
  <object id="1048" gid="142" x="192" y="960" width="16" height="16" rotation="90"/>
  <object id="1049" gid="142" x="208" y="1088" width="16" height="16" rotation="90"/>
  <object id="1050" gid="142" x="240" y="1088" width="16" height="16" rotation="90"/>
  <object id="1051" gid="142" x="224" y="1088" width="16" height="16" rotation="90"/>
  <object id="1052" gid="142" x="16" y="992" width="16" height="16" rotation="90"/>
  <object id="1053" gid="142" x="32" y="944" width="16" height="16" rotation="90"/>
  <object id="1054" gid="142" x="64" y="944" width="16" height="16" rotation="90"/>
  <object id="1059" gid="142" x="752" y="784" width="16" height="16" rotation="90"/>
  <object id="1060" gid="142" x="768" y="784" width="16" height="16" rotation="90"/>
  <object id="1061" gid="142" x="784" y="784" width="16" height="16" rotation="90"/>
  <object id="1062" gid="142" x="800" y="784" width="16" height="16" rotation="90"/>
  <object id="1063" gid="142" x="720" y="720" width="16" height="16" rotation="90"/>
  <object id="1064" gid="142" x="736" y="720" width="16" height="16" rotation="90"/>
  <object id="1065" gid="142" x="752" y="720" width="16" height="16" rotation="90"/>
  <object id="1066" gid="142" x="560" y="960" width="16" height="16" rotation="90"/>
  <object id="1067" gid="142" x="592" y="960" width="16" height="16" rotation="90"/>
  <object id="1068" gid="142" x="608" y="960" width="16" height="16" rotation="90"/>
  <object id="1069" gid="142" x="624" y="960" width="16" height="16" rotation="90"/>
  <object id="1072" gid="142" x="64" y="704" width="16" height="16" rotation="90"/>
  <object id="1073" gid="142" x="80" y="704" width="16" height="16" rotation="90"/>
  <object id="1074" gid="142" x="96" y="704" width="16" height="16" rotation="90"/>
  <object id="1075" gid="142" x="128" y="752" width="16" height="16" rotation="90"/>
  <object id="1076" gid="142" x="128" y="736" width="16" height="16" rotation="90"/>
 </objectgroup>
 <objectgroup id="10" name="npc">
  <object id="3" name="arquimedes" x="40.6364" y="167.97">
   <point/>
  </object>
 </objectgroup>
 <objectgroup id="9" name="player">
  <object id="1" name="player" x="96" y="144">
   <point/>
  </object>
 </objectgroup>
 <objectgroup id="4" name="areas_dialog">
  <object id="4" name="dialog_1" x="32.3034" y="156.3" width="63.3333" height="76">
   <properties>
    <property name="active_status" type="bool" value="true"/>
    <property name="dialogo" value="Olá meu jovem!;Que bom te ver denovo!; Bom, nesta fase você deve aplicar as Leis de Kirchoff"/>
   </properties>
  </object>
 </objectgroup>
 <objectgroup id="3" name="itens">
  <object id="5" name="control_pannel" x="192" y="256">
   <properties>
    <property name="action" value="active"/>
    <property name="active_status" type="bool" value="true"/>
    <property name="component_for_area" value="4"/>
    <property name="pannel_id" value="4"/>
    <property name="target_component" value="R1"/>
    <property name="type_solution" value="power;resistance"/>
   </properties>
   <point/>
  </object>
  <object id="6" name="control_pannel" x="560" y="512">
   <properties>
    <property name="action" value="active"/>
    <property name="active_status" type="bool" value="true"/>
    <property name="component_for_area" value="2"/>
    <property name="pannel_id" value="3"/>
    <property name="target_component" value="R1"/>
    <property name="type_solution" value="power;resistance"/>
   </properties>
   <point/>
  </object>
  <object id="7" name="control_pannel" x="208" y="800">
   <properties>
    <property name="action" value="active"/>
    <property name="active_status" type="bool" value="true"/>
    <property name="component_for_area" value="3"/>
    <property name="pannel_id" value="2"/>
    <property name="target_component" value="R1"/>
    <property name="type_solution" value="power;resistance"/>
   </properties>
   <point/>
  </object>
  <object id="8" name="control_pannel" x="704" y="16">
   <properties>
    <property name="action" value="active"/>
    <property name="active_status" type="bool" value="true"/>
    <property name="component_for_area" value="1"/>
    <property name="pannel_id" value="1"/>
    <property name="target_component" value="R1"/>
    <property name="type_solution" value="power;resistance"/>
   </properties>
   <point/>
  </object>
  <object id="217" name="voltage_source" x="485" y="945.09">
   <properties>
    <property name="active_status" type="bool" value="true"/>
    <property name="area" value="1"/>
    <property name="valor" value="10"/>
   </properties>
   <point/>
  </object>
  <object id="218" name="voltage_source" x="487.667" y="653.09">
   <properties>
    <property name="active_status" type="bool" value="true"/>
    <property name="area" value="2"/>
    <property name="valor" value="10"/>
   </properties>
   <point/>
  </object>
  <object id="504" name="voltage_source" x="529" y="417.757">
   <properties>
    <property name="active_status" type="bool" value="true"/>
    <property name="area" value="1"/>
    <property name="valor" value="10"/>
   </properties>
   <point/>
  </object>
  <object id="507" name="voltage_source" x="722.333" y="791.09">
   <properties>
    <property name="active_status" type="bool" value="true"/>
    <property name="area" value="2"/>
    <property name="valor" value="10"/>
   </properties>
   <point/>
  </object>
  <object id="505" name="voltage_source" x="529" y="417.757">
   <properties>
    <property name="active_status" type="bool" value="true"/>
    <property name="area" value="2"/>
    <property name="valor" value="10"/>
   </properties>
   <point/>
  </object>
  <object id="506" name="voltage_source" x="98.333" y="643.09">
   <properties>
    <property name="active_status" type="bool" value="true"/>
    <property name="area" value="4"/>
    <property name="valor" value="10"/>
   </properties>
   <point/>
  </object>
  <object id="502" name="current_source" x="70.333" y="357.757">
   <properties>
    <property name="active_status" type="bool" value="true"/>
    <property name="area" value="4"/>
    <property name="valor" value="10"/>
   </properties>
   <point/>
  </object>
  <object id="503" name="current_source" x="231.667" y="623.09">
   <properties>
    <property name="active_status" type="bool" value="true"/>
    <property name="area" value="3"/>
    <property name="valor" value="10"/>
   </properties>
   <point/>
  </object>
  <object id="15" name="resistor" x="249.697" y="1046.91">
   <properties>
    <property name="active_status" type="bool" value="true"/>
    <property name="area" value="1"/>
    <property name="valor" value="100"/>
   </properties>
   <point/>
  </object>
  <object id="17" name="resistor" x="691.697" y="213.455">
   <properties>
    <property name="active_status" type="bool" value="true"/>
    <property name="area" value="2"/>
    <property name="valor" value="100"/>
   </properties>
   <point/>
  </object>
  <object id="220" name="resistor" x="468.697" y="191.455">
   <properties>
    <property name="active_status" type="bool" value="true"/>
    <property name="area" value="2"/>
    <property name="valor" value="100"/>
   </properties>
   <point/>
  </object>
  <object id="219" name="resistor" x="474.697" y="749.455">
   <properties>
    <property name="active_status" type="bool" value="true"/>
    <property name="area" value="2"/>
    <property name="valor" value="100"/>
   </properties>
   <point/>
  </object>
  <object id="21" name="resistor" x="229.333" y="457.091">
   <properties>
    <property name="active_status" type="bool" value="true"/>
    <property name="area" value="2"/>
    <property name="valor" value="100"/>
   </properties>
   <point/>
  </object>
  <object id="22" name="resistor" x="672" y="1032">
   <properties>
    <property name="active_status" type="bool" value="true"/>
    <property name="area" value="3"/>
    <property name="valor" value="100"/>
   </properties>
   <point/>
  </object>
  <object id="23" name="resistor" x="312.848" y="129.697">
   <properties>
    <property name="active_status" type="bool" value="true"/>
    <property name="area" value="4"/>
    <property name="valor" value="100"/>
   </properties>
   <point/>
  </object>
  <object id="24" name="resistor" x="750.667" y="353.03">
   <properties>
    <property name="active_status" type="bool" value="true"/>
    <property name="area" value="3"/>
    <property name="valor" value="100"/>
   </properties>
   <point/>
  </object>
  <object id="25" name="old_paper" x="70.576" y="981.03">
   <properties>
    <property name="active_status" type="bool" value="false"/>
   </properties>
   <point/>
  </object>
  <object id="508" name="crystal_invisibility" x="139.333" y="936">
   <properties>
    <property name="active_status" type="bool" value="true"/>
    <property name="duration" type="float" value="6"/>
   </properties>
   <point/>
  </object>
  <object id="528" name="crystal_invisibility" x="404" y="286">
   <properties>
    <property name="active_status" type="bool" value="true"/>
    <property name="duration" type="float" value="6"/>
   </properties>
   <point/>
  </object>
  <object id="1056" name="crystal_invisibility" x="128.596" y="498.726">
   <properties>
    <property name="active_status" type="bool" value="true"/>
    <property name="duration" type="float" value="6"/>
   </properties>
   <point/>
  </object>
  <object id="1057" name="crystal_invisibility" x="578.739" y="610.786">
   <properties>
    <property name="active_status" type="bool" value="true"/>
    <property name="duration" type="float" value="6"/>
   </properties>
   <point/>
  </object>
  <object id="1058" name="crystal_invisibility" x="529.356" y="1089.42">
   <properties>
    <property name="active_status" type="bool" value="true"/>
    <property name="duration" type="float" value="6"/>
   </properties>
   <point/>
  </object>
  <object id="1070" name="crystal_invisibility" x="145.69" y="851.052">
   <properties>
    <property name="active_status" type="bool" value="true"/>
    <property name="duration" type="float" value="6"/>
   </properties>
   <point/>
  </object>
  <object id="1071" name="crystal_invisibility" x="64.019" y="768.431">
   <properties>
    <property name="active_status" type="bool" value="true"/>
    <property name="duration" type="float" value="6"/>
   </properties>
   <point/>
  </object>
  <object id="1077" name="crystal_invisibility" x="44.076" y="76.1235">
   <properties>
    <property name="active_status" type="bool" value="true"/>
    <property name="duration" type="float" value="6"/>
   </properties>
   <point/>
  </object>
  <object id="1078" name="crystal_invisibility" x="748.729" y="122.657">
   <properties>
    <property name="active_status" type="bool" value="true"/>
    <property name="duration" type="float" value="6"/>
   </properties>
   <point/>
  </object>
  <object id="1079" name="crystal_invisibility" x="625.273" y="367.671">
   <properties>
    <property name="active_status" type="bool" value="true"/>
    <property name="duration" type="float" value="6"/>
   </properties>
   <point/>
  </object>
  <object id="509" name="anti_reaggro_flask" x="784" y="576">
   <properties>
    <property name="active_status" type="bool" value="true"/>
   </properties>
   <point/>
  </object>
  <object id="1055" name="anti_reaggro_flask" x="63.2023" y="1121.11">
   <properties>
    <property name="active_status" type="bool" value="true"/>
   </properties>
   <point/>
  </object>
 </objectgroup>
 <layer id="2" name="ground2" width="52" height="72">
  <data encoding="csv">
0,0,0,0,0,0,0,0,0,0,0,0,0,0,0,0,0,0,0,0,0,0,0,0,0,0,0,0,0,0,0,0,0,0,0,0,0,0,0,0,0,0,0,0,0,0,0,0,0,0,0,0,
0,0,0,0,0,0,0,0,0,0,0,0,0,0,0,0,0,0,0,0,0,0,0,0,0,0,0,0,0,0,0,0,0,0,0,0,0,0,0,0,0,0,0,0,0,0,0,0,0,0,0,0,
0,0,0,0,0,0,0,0,0,0,0,0,0,0,0,0,0,0,0,0,0,0,0,0,0,0,0,0,0,0,0,0,0,0,0,0,0,0,0,0,0,0,0,0,0,0,0,0,0,0,0,0,
0,0,0,0,0,0,0,0,0,0,0,0,0,0,0,0,0,0,0,0,0,0,0,0,0,0,0,0,0,0,0,0,0,0,0,0,0,0,0,0,0,0,0,0,0,0,0,0,0,0,0,0,
0,0,0,0,0,0,0,0,0,0,0,0,0,0,0,0,0,0,0,0,0,0,0,0,0,0,0,0,0,0,0,0,0,0,0,0,0,0,0,0,0,0,0,0,0,0,0,0,0,0,0,0,
0,0,0,0,0,0,0,0,0,0,0,0,0,0,0,0,0,0,0,0,0,0,0,0,0,0,0,0,0,0,0,0,0,0,0,0,0,0,0,0,0,0,0,0,0,0,0,0,0,0,0,0,
0,0,0,0,0,0,0,0,0,0,0,0,0,0,0,0,0,0,0,0,0,0,0,0,0,0,0,0,0,0,0,0,0,0,0,0,0,0,0,0,0,0,0,0,0,0,0,0,0,0,0,0,
0,0,0,0,0,0,0,0,0,0,0,0,0,0,0,0,0,0,0,0,0,0,0,0,0,0,0,0,0,0,0,0,0,0,0,0,0,0,0,0,0,0,0,0,0,0,0,0,0,0,0,0,
0,0,0,0,0,0,0,0,0,0,0,0,0,0,0,0,0,0,0,0,0,0,0,0,0,0,0,0,0,0,0,0,0,0,0,0,0,0,0,0,0,0,0,0,0,0,0,0,0,0,0,0,
0,0,0,0,0,0,0,0,0,0,0,0,0,0,0,0,0,0,0,0,0,0,0,0,0,0,0,0,0,0,0,0,0,0,0,0,0,0,0,0,0,0,0,0,0,0,0,0,0,0,0,0,
0,0,0,0,0,0,0,0,0,0,0,0,0,0,0,0,0,0,0,0,0,0,0,0,0,0,0,0,0,0,0,0,0,0,0,0,0,0,0,0,0,0,0,0,0,0,0,0,0,0,0,0,
0,0,0,0,0,0,0,0,0,0,0,0,0,0,0,0,0,0,0,0,0,0,0,0,0,0,0,0,0,0,0,0,0,0,0,0,0,0,0,0,0,0,0,0,0,0,0,0,0,0,0,0,
0,0,0,0,0,0,0,0,0,0,0,0,0,0,0,0,0,0,0,0,0,0,0,0,0,0,0,0,0,0,0,0,0,0,0,0,0,0,0,0,0,0,0,0,0,0,0,0,0,0,0,0,
0,0,0,0,0,0,0,0,0,0,0,0,0,0,0,0,0,0,0,0,0,0,0,0,0,0,0,0,0,0,0,0,0,0,0,0,0,0,0,0,0,0,0,0,0,0,0,0,0,0,0,0,
0,0,0,0,0,0,0,0,0,0,0,0,0,0,0,0,0,0,0,0,0,0,0,0,0,0,0,0,0,0,0,0,0,0,0,0,0,0,0,0,0,0,0,0,0,0,0,0,0,0,0,0,
0,0,0,0,0,0,0,0,0,0,0,0,0,0,0,0,0,0,0,0,0,0,0,0,0,0,0,0,0,0,0,0,0,0,0,0,0,0,0,0,0,0,0,0,0,0,0,0,0,0,0,0,
0,0,0,0,0,0,0,0,0,0,0,0,0,0,0,0,0,0,0,0,0,0,0,0,0,0,0,0,0,0,0,0,0,0,0,0,0,0,0,0,0,0,0,0,0,0,0,0,0,0,0,0,
0,0,0,0,0,0,0,0,0,0,0,0,0,0,0,0,0,0,0,0,0,0,0,0,0,0,0,0,0,0,0,0,0,0,0,0,0,0,0,0,0,0,0,0,0,0,0,0,0,0,0,0,
0,0,0,0,0,0,0,0,0,0,0,0,0,0,0,0,0,0,0,0,0,0,0,0,0,0,0,0,0,0,0,0,0,0,0,0,0,0,0,0,0,0,0,0,0,0,0,0,0,0,0,0,
0,0,0,0,0,0,0,0,0,0,0,0,0,0,0,0,0,0,0,0,0,0,0,0,0,0,0,0,0,0,0,0,0,0,0,0,0,0,0,0,0,0,0,0,0,0,0,0,0,0,0,0,
0,0,0,0,0,0,0,0,0,0,0,0,0,0,0,0,0,0,0,0,0,0,0,0,0,0,0,0,0,0,0,0,0,0,0,0,0,0,0,0,0,0,0,0,0,0,0,0,0,0,0,0,
0,0,0,0,0,0,0,0,0,0,0,0,0,0,0,0,0,0,0,0,0,0,0,0,0,0,0,0,0,0,0,0,0,0,0,0,0,0,0,0,0,0,0,0,0,0,0,0,0,0,0,0,
0,0,0,0,0,0,0,0,0,0,0,0,0,0,0,0,0,0,0,0,0,0,0,0,0,0,0,0,0,0,0,0,0,0,0,0,0,0,0,0,0,0,0,0,0,0,0,0,0,0,0,0,
0,0,0,0,0,0,0,0,0,0,0,0,0,0,0,0,0,0,0,0,0,0,0,0,0,0,0,0,0,0,0,0,0,0,0,0,0,0,0,0,0,0,0,0,0,0,0,0,0,0,0,0,
0,0,0,0,0,0,0,0,0,0,0,0,0,0,0,0,0,0,0,0,0,0,0,0,0,0,0,0,0,0,0,0,0,0,0,0,0,0,0,0,0,0,0,0,0,0,0,0,0,0,0,0,
0,0,0,0,0,0,0,0,0,0,0,0,0,0,0,0,0,0,0,0,0,0,0,0,0,0,0,0,0,0,0,0,0,0,0,0,0,0,0,0,0,0,0,0,0,0,0,0,0,0,0,0,
0,0,0,0,0,0,0,0,0,0,0,0,0,0,0,0,0,0,0,0,0,0,0,0,0,0,0,0,0,0,0,0,0,0,0,0,0,0,0,0,0,0,0,0,0,0,0,0,0,0,0,0,
0,0,0,0,0,0,0,0,0,0,0,0,0,0,0,0,0,0,0,0,0,0,0,0,0,0,0,0,0,0,0,0,0,0,0,0,0,0,0,0,0,0,0,0,0,0,0,0,0,0,0,0,
0,0,0,0,0,0,0,0,0,0,0,0,0,0,0,0,0,0,0,0,0,0,0,0,0,0,0,0,0,0,0,0,0,0,0,0,0,0,0,0,0,0,0,0,0,0,0,0,0,0,0,0,
0,0,0,0,0,0,0,0,0,0,0,0,0,0,0,0,0,0,0,0,0,0,0,0,0,0,0,0,0,0,0,0,0,0,0,0,0,0,0,0,0,0,0,0,0,0,0,0,0,0,0,0,
0,0,0,0,0,0,0,0,0,0,0,0,0,0,0,0,0,0,0,0,0,0,0,0,0,0,0,0,0,0,0,0,0,0,0,0,0,0,0,0,0,0,0,0,0,0,0,0,0,0,0,0,
0,0,0,0,0,0,0,0,0,0,0,0,0,0,0,0,0,0,0,0,0,0,0,0,0,0,0,0,0,0,0,0,0,0,0,0,0,0,0,0,0,0,0,0,0,0,0,0,0,0,0,0,
0,0,0,0,0,0,0,0,0,0,0,0,0,0,0,0,0,0,0,0,0,0,0,0,0,0,0,0,0,0,0,0,0,0,0,0,0,0,0,0,0,0,0,0,0,0,0,0,0,0,0,0,
0,0,0,0,0,0,0,0,0,0,0,0,0,0,0,0,0,0,0,0,0,0,0,0,0,0,0,0,0,0,0,0,0,0,0,0,0,0,0,0,0,0,0,0,0,0,0,0,0,0,0,0,
0,0,0,0,0,0,0,0,0,0,0,0,0,0,0,0,0,0,0,0,0,0,0,0,0,0,0,0,0,0,0,0,0,0,0,0,0,0,0,0,0,0,0,0,0,0,0,0,0,0,0,0,
0,0,0,0,0,0,0,0,0,0,0,0,0,0,0,0,0,0,0,0,0,0,0,0,0,0,0,0,0,0,0,0,0,0,0,0,0,0,0,0,0,0,0,0,0,0,0,0,0,0,0,0,
0,0,0,0,0,0,0,0,0,0,0,0,0,0,0,0,0,0,0,0,0,0,0,0,0,0,0,0,0,0,0,0,0,0,0,0,0,0,0,0,0,0,0,0,0,0,0,0,0,0,0,0,
0,0,0,0,0,0,0,0,0,0,0,0,0,0,0,0,0,0,0,0,0,0,0,0,0,0,0,0,0,0,0,0,0,0,0,0,0,0,0,0,0,0,0,0,0,0,0,0,0,0,0,0,
0,0,0,0,0,0,0,0,0,0,0,0,0,0,0,0,0,0,0,0,0,0,0,0,0,0,0,0,0,0,0,0,0,0,0,0,0,0,0,0,0,0,0,0,0,0,0,0,0,0,0,0,
0,0,0,0,0,0,0,0,0,0,0,0,0,0,0,0,0,0,0,0,0,0,0,0,0,0,0,0,0,0,0,0,0,0,0,0,0,0,0,0,0,0,0,0,0,0,0,0,0,0,0,0,
0,0,0,0,0,0,0,0,0,0,0,0,0,0,0,0,0,0,0,0,0,0,0,0,0,0,0,0,0,0,0,0,0,0,0,0,0,0,0,0,0,0,0,0,0,0,0,0,0,0,0,0,
0,0,0,0,0,0,0,0,0,0,0,0,0,0,0,0,0,0,0,0,0,0,0,0,0,0,0,0,0,0,0,0,0,0,0,0,0,0,0,0,0,0,0,0,0,0,0,0,0,0,0,0,
0,0,0,0,0,0,0,0,0,0,0,0,0,0,0,0,0,0,0,0,0,0,0,0,0,0,0,0,0,0,0,0,0,0,0,0,0,0,0,0,0,0,0,0,0,0,0,0,0,0,0,0,
0,0,0,0,0,0,0,0,0,0,0,0,0,0,0,0,0,0,0,0,0,0,0,0,0,0,0,0,0,0,0,0,0,0,0,0,0,0,0,0,0,0,0,0,0,0,0,0,0,0,0,0,
0,0,0,0,0,0,0,0,0,0,0,0,0,0,0,0,0,0,0,0,0,0,0,0,0,0,0,0,0,0,0,0,0,0,0,0,0,0,0,0,0,0,0,0,0,0,0,0,0,0,0,0,
0,0,0,0,0,0,0,0,0,0,0,0,0,0,0,0,0,0,0,0,0,0,0,0,0,0,0,0,0,0,0,0,0,0,0,0,0,0,0,0,0,0,0,0,0,0,0,0,0,0,0,0,
0,0,0,0,0,0,0,0,0,0,0,0,0,0,0,0,0,0,0,0,0,0,0,0,0,0,0,0,0,0,0,0,0,0,0,0,0,0,0,0,0,0,0,0,0,0,0,0,0,0,0,0,
0,0,0,0,0,0,0,0,0,0,0,0,0,0,0,0,0,0,0,0,0,0,0,0,0,0,0,0,0,0,0,0,0,0,0,0,0,0,0,0,0,0,0,0,0,0,0,0,0,0,0,0,
0,0,0,0,0,0,0,0,0,0,0,0,0,0,0,0,0,0,0,0,0,0,0,0,0,0,0,0,0,0,0,0,0,0,0,0,0,0,0,0,0,0,0,0,0,0,0,0,0,0,0,0,
0,0,0,0,0,0,0,0,0,0,0,0,0,0,0,0,0,0,0,0,0,0,0,0,0,0,0,0,0,0,0,0,0,0,0,0,0,0,0,0,0,0,0,0,0,0,0,0,0,0,0,0,
0,0,0,0,0,0,0,0,0,0,0,0,0,0,0,0,0,0,0,0,0,0,0,0,0,0,0,0,0,0,0,0,0,0,0,0,0,0,0,0,0,0,0,0,0,0,0,0,0,0,0,0,
0,0,0,0,0,0,0,0,0,0,0,0,0,0,0,0,0,0,0,0,0,0,0,0,0,0,0,0,0,0,0,0,0,0,0,0,0,0,0,0,0,0,0,0,0,0,0,0,0,0,0,0,
0,0,0,0,0,0,0,0,0,0,0,0,0,0,0,0,0,0,0,0,0,0,0,0,0,0,0,0,0,0,0,0,0,0,0,0,0,0,0,0,0,0,0,0,0,0,0,0,0,0,0,0,
0,0,0,0,0,0,0,0,0,0,0,0,0,0,0,0,0,0,0,0,0,0,0,0,0,0,0,0,0,0,0,0,0,0,0,0,0,0,0,0,0,0,0,0,0,0,0,0,0,0,0,0,
0,0,0,0,0,0,0,0,0,0,0,0,0,0,0,0,0,0,0,0,0,0,0,0,0,0,0,0,0,0,0,0,0,0,0,0,0,0,0,0,0,0,0,0,0,0,0,0,0,0,0,0,
0,0,0,0,0,0,0,0,0,0,0,0,0,0,0,0,0,0,0,0,0,0,0,0,0,0,0,0,0,0,0,0,0,0,0,0,0,0,0,0,0,0,0,0,0,0,0,0,0,0,0,0,
0,0,0,0,0,0,0,0,0,0,0,0,0,0,0,0,0,0,0,0,0,0,0,0,0,0,0,0,0,0,0,0,0,0,0,0,0,0,0,0,0,0,0,0,0,0,0,0,0,0,0,0,
0,0,0,0,0,0,0,0,0,0,0,0,0,0,0,0,0,0,0,0,0,0,0,0,0,0,0,0,0,0,0,0,0,0,0,0,0,0,0,0,0,0,0,0,0,0,0,0,0,0,0,0,
0,0,0,0,0,0,0,0,0,0,0,0,0,0,0,0,0,0,0,0,0,0,0,0,0,0,0,0,0,0,0,0,0,0,0,0,0,0,0,0,0,0,0,0,0,0,0,0,0,0,0,0,
0,0,0,0,0,0,0,0,0,0,0,0,0,0,0,0,0,0,0,0,0,0,0,0,0,0,0,0,0,0,0,0,0,0,0,0,0,0,0,0,0,0,0,0,0,0,0,0,0,0,0,0,
0,0,0,0,0,0,0,0,0,0,0,0,0,0,0,0,0,0,0,0,0,0,0,0,0,0,0,0,0,0,0,0,0,0,0,0,0,0,0,0,0,0,0,0,0,0,0,0,0,0,0,0,
0,0,0,0,0,0,0,0,0,0,0,0,0,0,0,0,0,0,0,0,0,0,0,0,0,0,0,0,0,0,0,0,0,0,0,0,0,0,0,0,0,0,0,0,0,0,0,0,0,0,0,0,
0,0,0,0,0,0,0,0,0,0,0,0,0,0,0,0,0,0,0,0,0,0,0,0,0,0,0,0,0,0,0,0,0,0,0,0,0,0,0,0,0,0,0,0,0,0,0,0,0,0,0,0,
0,0,0,0,0,0,0,0,0,0,0,0,0,0,0,0,0,0,0,0,0,0,0,0,0,0,0,0,0,0,0,0,0,0,0,0,0,0,0,0,0,0,0,0,0,0,0,0,0,0,0,0,
0,0,0,0,0,0,0,0,0,0,0,0,0,0,0,0,0,0,0,0,0,0,0,0,0,0,0,0,0,0,0,0,0,0,0,0,0,0,0,0,0,0,0,0,0,0,0,0,0,0,0,0,
0,0,0,0,0,0,0,0,0,0,0,0,0,0,0,0,0,0,0,0,0,0,0,0,0,0,0,0,0,0,0,0,0,0,0,0,0,0,0,0,0,0,0,0,0,0,0,0,0,0,0,0,
0,0,0,0,0,0,0,0,0,0,0,0,0,0,0,0,0,0,0,0,0,0,0,0,0,0,0,0,0,0,0,0,0,0,0,0,0,0,0,0,0,0,0,0,0,0,0,0,0,0,0,0,
0,0,0,0,0,0,0,0,0,0,0,0,0,0,0,0,0,0,0,0,0,0,0,0,0,0,0,0,0,0,0,0,0,0,0,0,0,0,0,0,0,0,0,0,0,0,0,0,0,0,0,0,
0,0,0,0,0,0,0,0,0,0,0,0,0,0,0,0,0,0,0,0,0,0,0,0,0,0,0,0,0,0,0,0,0,0,0,0,0,0,0,0,0,0,0,0,0,0,0,0,0,0,0,0,
0,0,0,0,0,0,0,0,0,0,0,0,0,0,0,0,0,0,0,0,0,0,0,0,0,0,0,0,0,0,0,0,0,0,0,0,0,0,0,0,0,0,0,0,0,0,0,0,0,0,0,0,
0,0,0,0,0,0,0,0,0,0,0,0,0,0,0,0,0,0,0,0,0,0,0,0,0,0,0,0,0,0,0,0,0,0,0,0,0,0,0,0,0,0,0,0,0,0,0,0,0,0,0,0,
0,0,0,0,0,0,0,0,0,0,0,0,0,0,0,0,0,0,0,0,0,0,0,0,0,0,0,0,0,0,0,0,0,0,0,0,0,0,0,0,0,0,0,0,0,0,0,0,0,0,0,0
</data>
 </layer>
 <layer id="1" name="ground3" width="52" height="72">
  <data encoding="csv">
0,0,0,0,0,0,0,0,0,0,0,0,0,0,0,0,0,0,0,0,0,0,0,0,0,0,0,0,0,0,0,0,0,0,0,0,0,0,0,0,0,0,0,0,0,0,0,0,0,0,0,0,
0,0,0,0,0,0,0,0,0,0,0,0,0,0,0,0,0,0,0,0,0,0,0,0,0,0,0,0,0,0,0,0,0,0,0,0,0,0,0,0,0,0,0,0,0,0,0,0,0,0,0,0,
0,0,0,0,0,0,0,0,0,0,0,0,0,0,0,0,0,0,0,0,0,0,0,0,0,0,0,0,0,0,0,0,0,0,0,0,0,0,0,0,0,0,0,0,0,0,0,0,0,0,0,0,
0,0,0,0,0,0,0,0,0,0,0,0,0,0,0,0,0,0,0,0,0,0,0,0,0,0,0,0,0,0,0,0,0,0,0,0,0,0,0,0,0,0,0,0,0,0,0,0,0,0,0,0,
0,0,0,0,0,0,0,0,0,0,0,0,0,0,0,0,0,0,0,0,0,0,0,0,0,0,0,0,0,0,0,0,0,0,0,0,0,0,0,0,0,0,0,0,0,0,0,0,0,0,0,0,
0,0,0,0,0,0,0,0,0,0,0,0,0,0,0,0,0,0,0,0,0,0,0,0,0,0,0,0,0,0,0,0,0,0,0,0,0,0,0,0,0,0,0,0,0,0,0,0,0,0,0,0,
0,0,0,0,0,0,0,0,0,0,0,0,0,0,0,0,0,0,0,0,0,0,0,0,0,0,0,0,0,0,0,0,0,0,0,0,0,0,0,0,0,0,0,0,0,0,0,0,0,0,0,0,
0,0,0,0,0,0,0,0,0,0,0,0,0,0,0,0,0,0,0,0,0,0,0,0,0,0,0,0,0,0,0,0,0,0,0,0,0,0,0,0,0,0,0,0,0,0,0,0,0,0,0,0,
0,0,0,0,0,0,0,0,0,0,0,0,0,0,0,0,0,0,0,0,0,0,0,0,0,0,0,0,0,0,0,0,0,0,0,0,0,0,0,0,0,0,0,0,0,0,0,0,0,0,0,0,
0,0,0,0,0,0,0,0,0,0,0,0,0,0,0,0,0,0,0,0,0,0,0,0,0,0,0,0,0,0,0,0,0,0,0,0,0,0,0,0,0,0,0,0,0,0,0,0,0,0,0,0,
0,0,0,0,0,0,0,0,0,0,0,0,0,0,0,0,0,0,0,0,0,0,0,0,0,0,0,0,0,0,0,0,0,0,0,0,0,0,0,0,0,0,0,0,0,0,0,0,0,0,0,0,
0,0,0,0,0,0,0,0,0,0,0,0,0,0,0,0,0,0,0,0,0,0,0,0,0,0,0,0,0,0,0,0,0,0,0,0,0,0,0,0,0,0,0,0,0,0,0,0,0,0,0,0,
0,0,0,0,0,0,0,0,0,0,0,0,0,0,0,0,0,0,0,0,0,0,0,0,0,0,0,0,0,0,0,0,0,0,0,0,0,0,0,0,0,0,0,0,0,0,0,0,0,0,0,0,
0,0,0,0,0,0,0,0,0,0,0,0,0,0,0,0,0,0,0,0,0,0,0,0,0,0,0,0,0,0,0,0,0,0,0,0,0,0,0,0,0,0,0,0,0,0,0,0,0,0,0,0,
0,0,0,0,0,0,0,0,0,0,0,0,0,0,0,0,0,0,0,0,0,0,0,0,0,0,0,0,0,0,0,0,0,0,0,0,0,0,0,0,0,0,0,0,0,0,0,0,0,0,0,0,
0,0,0,0,0,0,0,0,0,0,0,0,0,0,0,0,0,0,0,0,0,0,0,0,0,0,0,0,0,0,0,0,0,0,0,0,0,0,0,0,0,0,0,0,0,0,0,0,0,0,0,0,
0,0,0,0,0,0,0,0,0,0,0,0,0,0,0,0,0,0,0,0,0,0,0,0,0,0,0,0,0,0,0,0,0,0,0,0,0,0,0,0,0,0,0,0,0,0,0,0,0,0,0,0,
0,0,0,0,0,0,0,0,0,0,0,0,0,0,0,0,0,0,0,0,0,0,0,0,0,0,0,0,0,0,0,0,0,0,0,0,0,0,0,0,0,0,0,0,0,0,0,0,0,0,0,0,
0,0,0,0,0,0,0,0,0,0,0,0,0,0,0,0,0,0,0,0,0,0,0,0,0,0,0,0,0,0,0,0,0,0,0,0,0,0,0,0,0,0,0,0,0,0,0,0,0,0,0,0,
0,0,0,0,0,0,0,0,0,0,0,0,0,0,0,0,0,0,0,0,0,0,0,0,0,0,0,0,0,0,0,0,0,0,0,0,0,0,0,0,0,0,0,0,0,0,0,0,0,0,0,0,
0,0,0,0,0,0,0,0,0,0,0,0,0,0,0,0,0,0,0,0,0,0,0,0,0,0,0,0,0,0,0,0,0,0,0,0,0,0,0,0,0,0,0,0,0,0,0,0,0,0,0,0,
0,0,0,0,0,0,0,0,0,0,0,0,0,0,0,0,0,0,0,0,0,0,0,0,0,0,0,0,0,0,0,0,0,0,0,0,0,0,0,0,0,0,0,0,0,0,0,0,0,0,0,0,
0,0,0,0,0,0,0,0,0,0,0,0,0,0,0,0,0,0,0,0,0,0,0,0,0,0,0,0,0,0,0,0,0,0,0,0,0,0,0,0,0,0,0,0,0,0,0,0,0,0,0,0,
0,0,0,0,0,0,0,0,0,0,0,0,0,0,0,0,0,0,0,0,0,0,0,0,0,0,0,0,0,0,0,0,0,0,0,0,0,0,0,0,0,0,0,0,0,0,0,0,0,0,0,0,
0,0,0,0,0,0,0,0,0,0,0,0,0,0,0,0,0,0,0,0,0,0,0,0,0,0,0,0,0,0,0,0,0,0,0,0,0,0,0,0,0,0,0,0,0,0,0,0,0,0,0,0,
0,0,0,0,0,0,0,0,0,0,0,0,0,0,0,0,0,0,0,0,0,0,0,0,0,0,0,0,0,0,0,0,0,0,0,0,0,0,0,0,0,0,0,0,0,0,0,0,0,0,0,0,
0,0,0,0,0,0,0,0,0,0,0,0,0,0,0,0,0,0,0,0,0,0,0,0,0,0,0,0,0,0,0,0,0,0,0,0,0,0,0,0,0,0,0,0,0,0,0,0,0,0,0,0,
0,0,0,0,0,0,0,0,0,0,0,0,0,0,0,0,0,0,0,0,0,0,0,0,0,0,0,0,0,0,0,0,0,0,0,0,0,0,0,0,0,0,0,0,0,0,0,0,0,0,0,0,
0,0,0,0,0,0,0,0,0,0,0,0,0,0,0,0,0,0,0,0,0,0,0,0,0,0,0,0,0,0,0,0,0,0,0,0,0,0,0,0,0,0,0,0,0,0,0,0,0,0,0,0,
0,0,0,0,0,0,0,0,0,0,0,0,0,0,0,0,0,0,0,0,0,0,0,0,0,0,0,0,0,0,0,0,0,0,0,0,0,0,0,0,0,0,0,0,0,0,0,0,0,0,0,0,
0,0,0,0,0,0,0,0,0,0,0,0,0,0,0,0,0,0,0,0,0,0,0,0,0,0,0,0,0,0,0,0,0,0,0,0,0,0,0,0,0,0,0,0,0,0,0,0,0,0,0,0,
0,0,0,0,0,0,0,0,0,0,0,0,0,0,0,0,0,0,0,0,0,0,0,0,0,0,0,0,0,0,0,0,0,0,0,0,0,0,0,0,0,0,0,0,0,0,0,0,0,0,0,0,
0,0,0,0,0,0,0,0,0,0,0,0,0,0,0,0,0,0,0,0,0,0,0,0,0,0,0,0,0,0,0,0,0,0,0,0,0,0,0,0,0,0,0,0,0,0,0,0,0,0,0,0,
0,0,0,0,0,0,0,0,0,0,0,0,0,0,0,0,0,0,0,0,0,0,0,0,0,0,0,0,0,0,0,0,0,0,0,0,0,0,0,0,0,0,0,0,0,0,0,0,0,0,0,0,
0,0,0,0,0,0,0,0,0,0,0,0,0,0,0,0,0,0,0,0,0,0,0,0,0,0,0,0,0,0,0,0,0,0,0,0,0,0,0,0,0,0,0,0,0,0,0,0,0,0,0,0,
0,0,0,0,0,0,0,0,0,0,0,0,0,0,0,0,0,0,0,0,0,0,0,0,0,0,0,0,0,0,0,0,0,0,0,0,0,0,0,0,0,0,0,0,0,0,0,0,0,0,0,0,
0,0,0,0,0,0,0,0,0,0,0,0,0,0,0,0,0,0,0,0,0,0,0,0,0,0,0,0,0,0,0,0,0,0,0,0,0,0,0,0,0,0,0,0,0,0,0,0,0,0,0,0,
0,0,0,0,0,0,0,0,0,0,0,0,0,0,0,0,0,0,0,0,0,0,0,0,0,0,0,0,0,0,0,0,0,0,0,0,0,0,0,0,0,0,0,0,0,0,0,0,0,0,0,0,
0,0,0,0,0,0,0,0,0,0,0,0,0,0,0,0,0,0,0,0,0,0,0,0,0,0,0,0,0,0,0,0,0,0,0,0,0,0,0,0,0,0,0,0,0,0,0,0,0,0,0,0,
0,0,0,0,0,0,0,0,0,0,0,0,0,0,0,0,0,0,0,0,0,0,0,0,0,0,0,0,0,0,0,0,0,0,0,0,0,0,0,0,0,0,0,0,0,0,0,0,0,0,0,0,
0,0,0,0,0,0,0,0,0,0,0,0,0,0,0,0,0,0,0,0,0,0,0,0,0,0,0,0,0,0,0,0,0,0,0,0,0,0,0,0,0,0,0,0,0,0,0,0,0,0,0,0,
0,0,0,0,0,0,0,0,0,0,0,0,0,0,0,0,0,0,0,0,0,0,0,0,0,0,0,0,0,0,0,0,0,0,0,0,0,0,0,0,0,0,0,0,0,0,0,0,0,0,0,0,
0,0,0,0,0,0,0,0,0,0,0,0,0,0,0,0,0,0,0,0,0,0,0,0,0,0,0,0,0,0,0,0,0,0,0,0,0,0,0,0,0,0,0,0,0,0,0,0,0,0,0,0,
0,0,0,0,0,0,0,0,0,0,0,0,0,0,0,0,0,0,0,0,0,0,0,0,0,0,0,0,0,0,0,0,0,0,0,0,0,0,0,0,0,0,0,0,0,0,0,0,0,0,0,0,
0,0,0,0,0,0,0,0,0,0,0,0,0,0,0,0,0,0,0,0,0,0,0,0,0,0,0,0,0,0,0,0,0,0,0,0,0,0,0,0,0,0,0,0,0,0,0,0,0,0,0,0,
0,0,0,0,0,0,0,0,0,0,0,0,0,0,0,0,0,0,0,0,0,0,0,0,0,0,0,0,0,0,0,0,0,0,0,0,0,0,0,0,0,0,0,0,0,0,0,0,0,0,0,0,
0,0,0,0,0,0,0,0,0,0,0,0,0,0,0,0,0,0,0,0,0,0,0,0,0,0,0,0,0,0,0,0,0,0,0,0,0,0,0,0,0,0,0,0,0,0,0,0,0,0,0,0,
0,0,0,0,0,0,0,0,0,0,0,0,0,0,0,0,0,0,0,0,0,0,0,0,0,0,0,0,0,0,0,0,0,0,0,0,0,0,0,0,0,0,0,0,0,0,0,0,0,0,0,0,
0,0,0,0,0,0,0,0,0,0,0,0,0,0,0,0,0,0,0,0,0,0,0,0,0,0,0,0,0,0,0,0,0,0,0,0,0,0,0,0,0,0,0,0,0,0,0,0,0,0,0,0,
0,0,0,0,0,0,0,0,0,0,0,0,0,0,0,0,0,0,0,0,0,0,0,0,0,0,0,0,0,0,0,0,0,0,0,0,0,0,0,0,0,0,0,0,0,0,0,0,0,0,0,0,
0,0,0,0,0,0,0,0,0,0,0,0,0,0,0,0,0,0,0,0,0,0,0,0,0,0,0,0,0,0,0,0,0,0,0,0,0,0,0,0,0,0,0,0,0,0,0,0,0,0,0,0,
0,0,0,0,0,0,0,0,0,0,0,0,0,0,0,0,0,0,0,0,0,0,0,0,0,0,0,0,0,0,0,0,0,0,0,0,0,0,0,0,0,0,0,0,0,0,0,0,0,0,0,0,
0,0,0,0,0,0,0,0,0,0,0,0,0,0,0,0,0,0,0,0,0,0,0,0,0,0,0,0,0,0,0,0,0,0,0,0,0,0,0,0,0,0,0,0,0,0,0,0,0,0,0,0,
0,0,0,0,0,0,0,0,0,0,0,0,0,0,0,0,0,0,0,0,0,0,0,0,0,0,0,0,0,0,0,0,0,0,0,0,0,0,0,0,0,0,0,0,0,0,0,0,0,0,0,0,
0,0,0,0,0,0,0,0,0,0,0,0,0,0,0,0,0,0,0,0,0,0,0,0,0,0,0,0,0,0,0,0,0,0,0,0,0,0,0,0,0,0,0,0,0,0,0,0,0,0,0,0,
0,0,0,0,0,0,0,0,0,0,0,0,0,0,0,0,0,0,0,0,0,0,0,0,0,0,0,0,0,0,0,0,0,0,0,0,0,0,0,0,0,0,0,0,0,0,0,0,0,0,0,0,
0,0,0,0,0,0,0,0,0,0,0,0,0,0,0,0,0,0,0,0,0,0,0,0,0,0,0,0,0,0,0,0,0,0,0,0,0,0,0,0,0,0,0,0,0,0,0,0,0,0,0,0,
0,0,0,0,0,0,0,0,0,0,0,0,0,0,0,0,0,0,0,0,0,0,0,0,0,0,0,0,0,0,0,0,0,0,0,0,0,0,0,0,0,0,0,0,0,0,0,0,0,0,0,0,
0,0,0,0,0,0,0,0,0,0,0,0,0,0,0,0,0,0,0,0,0,0,0,0,0,0,0,0,0,0,0,0,0,0,0,0,0,0,0,0,0,0,0,0,0,0,0,0,0,0,0,0,
0,0,0,0,0,0,0,0,0,0,0,0,0,0,0,0,0,0,0,0,0,0,0,0,0,0,0,0,0,0,0,0,0,0,0,0,0,0,0,0,0,0,0,0,0,0,0,0,0,0,0,0,
0,0,0,0,0,0,0,0,0,0,0,0,0,0,0,0,0,0,0,0,0,0,0,0,0,0,0,0,0,0,0,0,0,0,0,0,0,0,0,0,0,0,0,0,0,0,0,0,0,0,0,0,
0,0,0,0,0,0,0,0,0,0,0,0,0,0,0,0,0,0,0,0,0,0,0,0,0,0,0,0,0,0,0,0,0,0,0,0,0,0,0,0,0,0,0,0,0,0,0,0,0,0,0,0,
0,0,0,0,0,0,0,0,0,0,0,0,0,0,0,0,0,0,0,0,0,0,0,0,0,0,0,0,0,0,0,0,0,0,0,0,0,0,0,0,0,0,0,0,0,0,0,0,0,0,0,0,
0,0,0,0,0,0,0,0,0,0,0,0,0,0,0,0,0,0,0,0,0,0,0,0,0,0,0,0,0,0,0,0,0,0,0,0,0,0,0,0,0,0,0,0,0,0,0,0,0,0,0,0,
0,0,0,0,0,0,0,0,0,0,0,0,0,0,0,0,0,0,0,0,0,0,0,0,0,0,0,0,0,0,0,0,0,0,0,0,0,0,0,0,0,0,0,0,0,0,0,0,0,0,0,0,
0,0,0,0,0,0,0,0,0,0,0,0,0,0,0,0,0,0,0,0,0,0,0,0,0,0,0,0,0,0,0,0,0,0,0,0,0,0,0,0,0,0,0,0,0,0,0,0,0,0,0,0,
0,0,0,0,0,0,0,0,0,0,0,0,0,0,0,0,0,0,0,0,0,0,0,0,0,0,0,0,0,0,0,0,0,0,0,0,0,0,0,0,0,0,0,0,0,0,0,0,0,0,0,0,
0,0,0,0,0,0,0,0,0,0,0,0,0,0,0,0,0,0,0,0,0,0,0,0,0,0,0,0,0,0,0,0,0,0,0,0,0,0,0,0,0,0,0,0,0,0,0,0,0,0,0,0,
0,0,0,0,0,0,0,0,0,0,0,0,0,0,0,0,0,0,0,0,0,0,0,0,0,0,0,0,0,0,0,0,0,0,0,0,0,0,0,0,0,0,0,0,0,0,0,0,0,0,0,0,
0,0,0,0,0,0,0,0,0,0,0,0,0,0,0,0,0,0,0,0,0,0,0,0,0,0,0,0,0,0,0,0,0,0,0,0,0,0,0,0,0,0,0,0,0,0,0,0,0,0,0,0,
0,0,0,0,0,0,0,0,0,0,0,0,0,0,0,0,0,0,0,0,0,0,0,0,0,0,0,0,0,0,0,0,0,0,0,0,0,0,0,0,0,0,0,0,0,0,0,0,0,0,0,0,
0,0,0,0,0,0,0,0,0,0,0,0,0,0,0,0,0,0,0,0,0,0,0,0,0,0,0,0,0,0,0,0,0,0,0,0,0,0,0,0,0,0,0,0,0,0,0,0,0,0,0,0
</data>
 </layer>
 <objectgroup id="15" name="enemy_routes">
  <object id="510" name="p6_route_a_0" x="734.667" y="864.33">
   <properties>
    <property name="order" type="int" value="0"/>
    <property name="route_id" value="p6_route_a"/>
   </properties>
   <point/>
  </object>
  <object id="511" name="p6_route_a_1" x="80" y="448">
   <properties>
    <property name="order" type="int" value="1"/>
    <property name="route_id" value="p6_route_a"/>
   </properties>
   <point/>
  </object>
  <object id="534" name="p6_route_a_2" x="672" y="128">
   <properties>
    <property name="order" type="int" value="2"/>
    <property name="route_id" value="p6_route_a"/>
   </properties>
   <point/>
  </object>
  <object id="523" name="p6_route_d_0" x="147.333" y="306">
   <properties>
    <property name="order" type="int" value="0"/>
    <property name="route_id" value="p6_route_d"/>
   </properties>
   <point/>
  </object>
  <object id="524" name="p6_route_d_1" x="180" y="97">
   <properties>
    <property name="order" type="int" value="1"/>
    <property name="route_id" value="p6_route_d"/>
   </properties>
   <point/>
  </object>
  <object id="525" name="p6_route_d_2" x="420" y="1121.67">
   <properties>
    <property name="order" type="int" value="2"/>
    <property name="route_id" value="p6_route_d"/>
   </properties>
   <point/>
  </object>
  <object id="526" name="p6_route_d_3" x="371.667" y="415.667">
   <properties>
    <property name="order" type="int" value="3"/>
    <property name="route_id" value="p6_route_d"/>
   </properties>
   <point/>
  </object>
  <object id="513" name="p6_route_b_0" x="319.333" y="774.333">
   <properties>
    <property name="order" type="int" value="0"/>
    <property name="route_id" value="p6_route_b"/>
   </properties>
   <point/>
  </object>
  <object id="519" name="p6_route_c_0" x="593" y="210.667">
   <properties>
    <property name="order" type="int" value="0"/>
    <property name="route_id" value="p6_route_c"/>
   </properties>
   <point/>
  </object>
  <object id="520" name="p6_route_c_1" x="399.333" y="63">
   <properties>
    <property name="order" type="int" value="1"/>
    <property name="route_id" value="p6_route_c"/>
   </properties>
   <point/>
  </object>
  <object id="521" name="p6_route_c_2" x="798" y="65.3333">
   <properties>
    <property name="order" type="int" value="2"/>
    <property name="route_id" value="p6_route_c"/>
   </properties>
   <point/>
  </object>
  <object id="514" name="p6_route_b_1" x="145" y="1120.33">
   <properties>
    <property name="order" type="int" value="1"/>
    <property name="route_id" value="p6_route_b"/>
   </properties>
   <point/>
  </object>
  <object id="517" name="p6_route_b_2" x="786.333" y="1106.25">
   <properties>
    <property name="order" type="int" value="2"/>
    <property name="route_id" value="p6_route_b"/>
   </properties>
   <point/>
  </object>
 </objectgroup>
 <objectgroup id="16" name="enemies">
  <object id="515" name="phantom_guard_a" x="80" y="1072">
   <properties>
    <property name="chase_speed" type="float" value="62"/>
    <property name="detection_radius" type="float" value="120"/>
    <property name="enemy_type" value="phantom"/>
    <property name="route_id" value="p6_route_a"/>
    <property name="speed" type="float" value="38"/>
    <property name="touch_radius" type="float" value="10"/>
   </properties>
   <point/>
  </object>
  <object id="522" name="phantom_guard_d" x="767.667" y="432.333">
   <properties>
    <property name="chase_speed" type="float" value="62"/>
    <property name="detection_radius" type="float" value="120"/>
    <property name="enemy_type" value="phantom"/>
    <property name="route_id" value="p6_route_d"/>
    <property name="speed" type="float" value="38"/>
    <property name="touch_radius" type="float" value="10"/>
   </properties>
   <point/>
  </object>
  <object id="533" name="phantom_guard_c" x="786" y="207.667">
   <properties>
    <property name="chase_speed" type="float" value="62"/>
    <property name="detection_radius" type="float" value="120"/>
    <property name="enemy_type" value="phantom"/>
    <property name="route_id" value="p6_route_c"/>
    <property name="speed" type="float" value="38"/>
    <property name="touch_radius" type="float" value="10"/>
   </properties>
   <point/>
  </object>
  <object id="532" name="phantom_guard_b" x="49" y="690">
   <properties>
    <property name="chase_speed" type="float" value="62"/>
    <property name="detection_radius" type="float" value="120"/>
    <property name="enemy_type" value="phantom"/>
    <property name="route_id" value="p6_route_b"/>
    <property name="speed" type="float" value="38"/>
    <property name="touch_radius" type="float" value="10"/>
   </properties>
   <point/>
  </object>
 </objectgroup>
</map>
